;FLAVOR:Marlin
;TIME:1471
;Filament used: 1.5663m
;Layer height: 0.2
;Generated with Cura_SteamEngine 1.2.1
M190 S35
M104 S220
M109 S220
G28
G1 Z50.00 F400
G92 E0
G1 F200 E3
G92 E0
M132 X Y Z A
M907 X100 Y100 Z50 A100
;LAYER_COUNT:30
;LAYER:0
M107
G0 F3000 X19.491 Y-22.79 Z0.3
;TYPE:SKIRT
G1 F1500 X20.109 Y-22.75 E0.0309
G1 X20.717 Y-22.631 E0.06181
G1 X21.304 Y-22.434 E0.0927
G1 X21.861 Y-22.164 E0.12358
G1 X22.379 Y-21.824 E0.15449
G1 X22.849 Y-21.42 E0.18541
G1 X23.263 Y-20.959 E0.21632
G1 X23.613 Y-20.449 E0.24718
G1 X23.896 Y-19.897 E0.27813
G1 X24.105 Y-19.314 E0.30903
G1 X24.237 Y-18.709 E0.33992
G1 X24.291 Y-17.99 E0.37589
G1 X24.291 Y17.991 E2.17099
G1 X24.251 Y18.609 E2.20189
G1 X24.132 Y19.217 E2.2328
G1 X23.935 Y19.804 E2.26369
G1 X23.665 Y20.361 E2.29457
G1 X23.325 Y20.879 E2.32548
G1 X22.921 Y21.349 E2.35641
G1 X22.46 Y21.762 E2.38728
G1 X21.95 Y22.113 E2.41817
G1 X21.399 Y22.396 E2.44908
G1 X20.816 Y22.605 E2.47997
G1 X20.21 Y22.737 E2.51092
G1 X19.491 Y22.791 E2.54689
G1 X-19.491 Y22.791 E4.49171
G1 X-20.109 Y22.751 E4.52261
G1 X-20.717 Y22.632 E4.55351
G1 X-21.304 Y22.435 E4.5844
G1 X-21.861 Y22.165 E4.61529
G1 X-22.379 Y21.825 E4.6462
G1 X-22.849 Y21.421 E4.67712
G1 X-23.262 Y20.96 E4.708
G1 X-23.613 Y20.45 E4.73889
G1 X-23.896 Y19.899 E4.76979
G1 X-24.105 Y19.316 E4.80069
G1 X-24.237 Y18.71 E4.83163
G1 X-24.291 Y17.991 E4.8676
G1 X-24.291 Y-17.991 E6.66275
G1 X-24.251 Y-18.609 E6.69365
G1 X-24.132 Y-19.217 E6.72456
G1 X-23.935 Y-19.804 E6.75545
G1 X-23.665 Y-20.361 E6.78633
G1 X-23.325 Y-20.879 E6.81724
G1 X-22.921 Y-21.349 E6.84816
G1 X-22.46 Y-21.762 E6.87904
G1 X-21.95 Y-22.113 E6.90993
G1 X-21.399 Y-22.396 E6.94083
G1 X-20.816 Y-22.605 E6.97173
G1 X-20.21 Y-22.737 E7.00267
G1 X-19.491 Y-22.791 E7.03865
G1 X19.491 Y-22.79 E8.98347
G0 F3000 X19.491 Y-22.39
G1 F1500 X20.083 Y-22.35 E9.01307
G1 X20.664 Y-22.231 E9.04266
G1 X21.223 Y-22.035 E9.07221
G1 X21.751 Y-21.765 E9.1018
G1 X22.238 Y-21.427 E9.13137
G1 X22.675 Y-21.026 E9.16096
G1 X23.055 Y-20.571 E9.19054
G1 X23.369 Y-20.068 E9.22012
G1 X23.614 Y-19.528 E9.2497
G1 X23.783 Y-18.959 E9.27932
G1 X23.874 Y-18.373 E9.3089
G1 X23.891 Y-17.99 E9.32803
G1 X23.891 Y17.991 E11.12313
G1 X23.851 Y18.583 E11.15273
G1 X23.732 Y19.163 E11.18227
G1 X23.536 Y19.723 E11.21187
G1 X23.266 Y20.251 E11.24146
G1 X22.928 Y20.738 E11.27103
G1 X22.527 Y21.175 E11.30062
G1 X22.072 Y21.555 E11.3302
G1 X21.569 Y21.869 E11.35978
G1 X21.029 Y22.114 E11.38936
G1 X20.46 Y22.283 E11.41898
G1 X19.875 Y22.374 E11.44851
G1 X19.491 Y22.391 E11.46769
G1 X-19.491 Y22.391 E13.41251
G1 X-20.083 Y22.351 E13.44211
G1 X-20.663 Y22.232 E13.47165
G1 X-21.223 Y22.036 E13.50125
G1 X-21.751 Y21.766 E13.53084
G1 X-22.238 Y21.428 E13.56041
G1 X-22.675 Y21.027 E13.59
G1 X-23.055 Y20.572 E13.61958
G1 X-23.369 Y20.069 E13.64916
G1 X-23.614 Y19.529 E13.67875
G1 X-23.783 Y18.96 E13.70836
G1 X-23.874 Y18.375 E13.7379
G1 X-23.891 Y17.991 E13.75707
G1 X-23.891 Y-17.991 E15.55222
G1 X-23.851 Y-18.583 E15.58182
G1 X-23.732 Y-19.163 E15.61136
G1 X-23.536 Y-19.723 E15.64096
G1 X-23.266 Y-20.251 E15.67055
G1 X-22.928 Y-20.738 E15.70012
G1 X-22.527 Y-21.175 E15.72971
G1 X-22.072 Y-21.555 E15.75929
G1 X-21.569 Y-21.869 E15.78887
G1 X-21.029 Y-22.114 E15.81846
G1 X-20.46 Y-22.283 E15.84807
G1 X-19.875 Y-22.374 E15.87761
G1 X-19.491 Y-22.391 E15.89678
G1 X19.491 Y-22.39 E17.8416
G0 F3000 X19.491 Y-21.99
G1 F1500 X20.055 Y-21.95 E17.86981
G1 X20.608 Y-21.831 E17.89803
G1 X21.138 Y-21.635 E17.92623
G1 X21.635 Y-21.367 E17.9544
G1 X22.09 Y-21.031 E17.98261
G1 X22.493 Y-20.634 E18.01084
G1 X22.836 Y-20.184 E18.03907
G1 X23.111 Y-19.691 E18.06723
G1 X23.315 Y-19.163 E18.09547
G1 X23.442 Y-18.613 E18.12363
G1 X23.491 Y-17.99 E18.15481
G1 X23.491 Y17.991 E19.94991
G1 X23.451 Y18.555 E19.97812
G1 X23.332 Y19.108 E20.00634
G1 X23.136 Y19.638 E20.03453
G1 X22.868 Y20.135 E20.0627
G1 X22.532 Y20.59 E20.09092
G1 X22.135 Y20.993 E20.11914
G1 X21.685 Y21.335 E20.14734
G1 X21.192 Y21.611 E20.17553
G1 X20.664 Y21.815 E20.20377
G1 X20.114 Y21.942 E20.23193
G1 X19.491 Y21.991 E20.26311
G1 X-19.491 Y21.991 E22.20793
G1 X-20.055 Y21.951 E22.23614
G1 X-20.608 Y21.832 E22.26436
G1 X-21.138 Y21.636 E22.29255
G1 X-21.635 Y21.368 E22.32072
G1 X-22.09 Y21.032 E22.34894
G1 X-22.493 Y20.635 E22.37716
G1 X-22.835 Y20.185 E22.40536
G1 X-23.111 Y19.692 E22.43355
G1 X-23.315 Y19.164 E22.46179
G1 X-23.442 Y18.614 E22.48995
G1 X-23.491 Y17.991 E22.52113
G1 X-23.491 Y-17.991 E24.31628
G1 X-23.451 Y-18.555 E24.34448
G1 X-23.332 Y-19.108 E24.37271
G1 X-23.136 Y-19.638 E24.4009
G1 X-22.868 Y-20.135 E24.42907
G1 X-22.532 Y-20.59 E24.45729
G1 X-22.135 Y-20.993 E24.48551
G1 X-21.685 Y-21.335 E24.51371
G1 X-21.192 Y-21.611 E24.5419
G1 X-20.664 Y-21.815 E24.57014
G1 X-20.114 Y-21.942 E24.5983
G1 X-19.491 Y-21.991 E24.62948
G1 X19.491 Y-21.99 E26.5743
G0 F3000 X19.491 Y-21.59
G1 F1500 X20.026 Y-21.55 E26.60106
G1 X20.549 Y-21.431 E26.62782
G1 X21.048 Y-21.236 E26.65455
G1 X21.513 Y-20.968 E26.68133
G1 X21.933 Y-20.635 E26.70807
G1 X22.299 Y-20.243 E26.73482
G1 X22.602 Y-19.801 E26.76156
G1 X22.837 Y-19.318 E26.78836
G1 X22.997 Y-18.807 E26.81507
G1 X23.08 Y-18.277 E26.84183
G1 X23.091 Y-17.99 E26.85616
G1 X23.091 Y17.991 E28.65126
G1 X23.051 Y18.526 E28.67803
G1 X22.932 Y19.049 E28.70479
G1 X22.737 Y19.548 E28.73152
G1 X22.469 Y20.013 E28.75829
G1 X22.136 Y20.433 E28.78503
G1 X21.744 Y20.799 E28.81179
G1 X21.302 Y21.102 E28.83852
G1 X20.819 Y21.337 E28.86532
G1 X20.308 Y21.497 E28.89204
G1 X19.778 Y21.58 E28.9188
G1 X19.491 Y21.591 E28.93313
G1 X-19.491 Y21.591 E30.87795
G1 X-20.026 Y21.551 E30.90472
G1 X-20.549 Y21.432 E30.93148
G1 X-21.048 Y21.237 E30.9582
G1 X-21.513 Y20.969 E30.98498
G1 X-21.933 Y20.636 E31.01172
G1 X-22.299 Y20.244 E31.03848
G1 X-22.602 Y19.802 E31.06521
G1 X-22.837 Y19.319 E31.09201
G1 X-22.997 Y18.808 E31.11872
G1 X-23.08 Y18.278 E31.14549
G1 X-23.091 Y17.991 E31.15982
G1 X-23.091 Y-17.991 E32.95497
G1 X-23.051 Y-18.526 E32.98173
G1 X-22.932 Y-19.049 E33.00849
G1 X-22.737 Y-19.548 E33.03522
G1 X-22.469 Y-20.013 E33.062
G1 X-22.136 Y-20.433 E33.08874
G1 X-21.744 Y-20.799 E33.11549
G1 X-21.302 Y-21.102 E33.14223
G1 X-20.819 Y-21.337 E33.16903
G1 X-20.308 Y-21.497 E33.19574
G1 X-19.778 Y-21.58 E33.22251
G1 X-19.491 Y-21.591 E33.23683
G1 X19.491 Y-21.59 E35.18165
G0 F3000 X19.491 Y-21.19
G1 F1500 X19.995 Y-21.15 E35.20688
G1 X20.486 Y-21.031 E35.23208
G1 X20.953 Y-20.836 E35.25733
G1 X21.383 Y-20.571 E35.28253
G1 X21.766 Y-20.24 E35.30779
G1 X22.092 Y-19.854 E35.33299
G1 X22.353 Y-19.421 E35.35822
G1 X22.543 Y-18.953 E35.38342
G1 X22.656 Y-18.46 E35.40865
G1 X22.691 Y-17.99 E35.43216
G1 X22.691 Y17.991 E37.22726
G1 X22.651 Y18.495 E37.25249
G1 X22.532 Y18.986 E37.27769
G1 X22.338 Y19.453 E37.30292
G1 X22.072 Y19.883 E37.32815
G1 X21.742 Y20.266 E37.35337
G1 X21.355 Y20.592 E37.37861
G1 X20.922 Y20.853 E37.40384
G1 X20.454 Y21.043 E37.42904
G1 X19.961 Y21.156 E37.45427
G1 X19.491 Y21.191 E37.47778
G1 X-19.491 Y21.191 E39.4226
G1 X-19.995 Y21.151 E39.44783
G1 X-20.486 Y21.032 E39.47303
G1 X-20.953 Y20.838 E39.49826
G1 X-21.383 Y20.572 E39.52349
G1 X-21.766 Y20.242 E39.54871
G1 X-22.092 Y19.855 E39.57395
G1 X-22.353 Y19.422 E39.59918
G1 X-22.543 Y18.954 E39.62438
G1 X-22.656 Y18.461 E39.64961
G1 X-22.691 Y17.991 E39.67312
G1 X-22.691 Y-17.991 E41.46827
G1 X-22.651 Y-18.495 E41.4935
G1 X-22.532 Y-18.986 E41.5187
G1 X-22.338 Y-19.453 E41.54393
G1 X-22.072 Y-19.883 E41.56916
G1 X-21.742 Y-20.266 E41.59438
G1 X-21.355 Y-20.592 E41.61962
G1 X-20.922 Y-20.853 E41.64485
G1 X-20.454 Y-21.043 E41.67005
G1 X-19.961 Y-21.156 E41.69528
G1 X-19.491 Y-21.191 E41.71879
G1 X19.491 Y-21.19 E43.66361
G1 F1500 E41.66361
G0 F3000 X18.886 Y-18.665
G0 X18.886 Y-17.386
G0 X18.83 Y-17.33
G0 X18.9 Y-17.4
;TYPE:WALL-INNER
G1 F1500 E43.74676
G1 X18.9 Y17.4 E45.48294
G1 X-18.9 Y17.4 E47.36879
G1 X-18.9 Y-17.4 E49.10497
G1 X18.9 Y-17.4 E50.99082
G0 F3000 X19.3 Y-17.8
;TYPE:WALL-OUTER
G1 F1500 X19.3 Y17.8 E52.76691
G1 X-19.3 Y17.8 E54.69267
G1 X-19.3 Y-17.8 E56.46877
G1 X19.3 Y-17.8 E58.39453
G0 F3000 X19.3 Y-17.6
G0 X18.7 Y-17.2
G0 X18.739 Y-16.899
;TYPE:SKIN
G1 F1500 X18.398 Y-17.239 E58.41855
G0 F3000 X17.832 Y-17.239
G1 F1500 X18.739 Y-16.333 E58.48251
G1 X18.809 Y-16.263
G0 F3000 X18.739 Y-15.767
G1 F1500 X17.266 Y-17.239 E58.5864
G1 X17.196 Y-17.309
G0 F3000 X16.701 Y-17.239
G1 F1500 X18.739 Y-15.202 E58.73016
G1 X18.809 Y-15.132
G0 F3000 X18.739 Y-14.636
G1 F1500 X16.135 Y-17.239 E58.91385
G1 X16.065 Y-17.309
G0 F3000 X15.569 Y-17.239
G1 F1500 X18.739 Y-14.07 E59.13748
G1 X18.809 Y-14
G0 F3000 X18.739 Y-13.505
G1 F1500 X15.004 Y-17.239 E59.40097
G1 X14.934 Y-17.309
G0 F3000 X14.438 Y-17.239
G1 F1500 X18.739 Y-12.939 E59.70439
G1 X18.809 Y-12.869
G0 F3000 X18.739 Y-12.373
G1 F1500 X13.872 Y-17.239 E60.04775
G1 X13.802 Y-17.309
G0 F3000 X13.307 Y-17.239
G1 F1500 X18.739 Y-11.807 E60.431
G1 X18.809 Y-11.737
G0 F3000 X18.739 Y-11.242
G1 F1500 X12.741 Y-17.239 E60.85416
G1 X12.671 Y-17.309
G0 F3000 X12.175 Y-17.239
G1 F1500 X18.739 Y-10.676 E61.31725
G1 X18.809 Y-10.606
G0 F3000 X18.739 Y-10.11
G1 F1500 X11.609 Y-17.239 E61.82028
G1 X11.539 Y-17.309
G0 F3000 X11.044 Y-17.239
G1 F1500 X18.739 Y-9.545 E62.36316
G1 X18.809 Y-9.475
G0 F3000 X18.739 Y-8.979
G1 F1500 X10.478 Y-17.239 E62.94599
G1 X10.408 Y-17.309
G0 F3000 X9.912 Y-17.239
G1 F1500 X18.739 Y-8.413 E63.56874
G1 X18.809 Y-8.343
G0 F3000 X18.739 Y-7.848
G1 F1500 X9.347 Y-17.239 E64.23136
G1 X9.277 Y-17.309
G0 F3000 X8.781 Y-17.239
G1 F1500 X18.739 Y-7.282 E64.93392
G1 X18.809 Y-7.212
G0 F3000 X18.739 Y-6.716
G1 F1500 X8.215 Y-17.239 E65.67641
G1 X8.145 Y-17.309
G0 F3000 X7.65 Y-17.239
G1 F1500 X18.739 Y-6.151 E66.45876
G1 X18.809 Y-6.081
G0 F3000 X18.739 Y-5.585
G1 F1500 X7.084 Y-17.239 E67.28105
G1 X7.014 Y-17.309
G0 F3000 X6.518 Y-17.239
G1 F1500 X18.739 Y-5.019 E68.14327
G1 X18.809 Y-4.949
G0 F3000 X18.739 Y-4.454
G1 F1500 X5.953 Y-17.239 E69.04536
G1 X5.883 Y-17.309
G0 F3000 X5.387 Y-17.239
G1 F1500 X18.739 Y-3.888 E69.98738
G1 X18.809 Y-3.818
G0 F3000 X18.739 Y-3.322
G1 F1500 X4.821 Y-17.239 E70.96933
G1 X4.751 Y-17.309
G0 F3000 X4.256 Y-17.239
G1 F1500 X18.739 Y-2.757 E71.99115
G1 X18.809 Y-2.687
G0 F3000 X18.739 Y-2.191
G1 F1500 X3.69 Y-17.239 E73.05291
G1 X3.62 Y-17.309
G0 F3000 X3.124 Y-17.239
G1 F1500 X18.739 Y-1.625 E74.15459
G1 X18.809 Y-1.555
G0 F3000 X18.739 Y-1.059
G1 F1500 X2.559 Y-17.239 E75.29618
G1 X2.489 Y-17.309
G0 F3000 X1.993 Y-17.239
G1 F1500 X18.739 Y-.494 E76.47767
G1 X18.809 Y-.424
G0 F3000 X18.739 Y0.071
G1 F1500 X1.427 Y-17.239 E77.69905
G1 X1.357 Y-17.309
G0 F3000 X0.861 Y-17.239
G1 F1500 X18.739 Y0.637 E78.96037
G1 X18.809 Y0.707
G0 F3000 X18.739 Y1.202
G1 F1500 X0.296 Y-17.239 E80.26155
G1 X0.226 Y-17.309
G0 F3000 X-.269 Y-17.239
G1 F1500 X18.739 Y1.768 E81.60263
G1 X18.809 Y1.838
G0 F3000 X18.739 Y2.334
G1 F1500 X-.835 Y-17.239 E82.98365
G1 X-.905 Y-17.309
G0 F3000 X-1.4 Y-17.239
G1 F1500 X18.739 Y2.899 E84.40453
G1 X18.809 Y2.969
G0 F3000 X18.739 Y3.465
G1 F1500 X-1.966 Y-17.239 E85.86534
G1 X-2.036 Y-17.309
G0 F3000 X-2.532 Y-17.239
G1 F1500 X18.739 Y4.031 E87.36609
G1 X18.809 Y4.101
G0 F3000 X18.739 Y4.596
G1 F1500 X-3.097 Y-17.239 E88.90671
G1 X-3.167 Y-17.309
G0 F3000 X-3.663 Y-17.239
G1 F1500 X18.739 Y5.162 E90.48725
G1 X18.809 Y5.232
G0 F3000 X18.739 Y5.728
G1 F1500 X-4.229 Y-17.239 E92.10773
G1 X-4.299 Y-17.309
G0 F3000 X-4.794 Y-17.239
G1 F1500 X18.739 Y6.293 E93.76808
G1 X18.809 Y6.363
G0 F3000 X18.739 Y6.859
G1 F1500 X-5.36 Y-17.239 E95.46836
G1 X-5.43 Y-17.309
G0 F3000 X-5.926 Y-17.239
G1 F1500 X18.739 Y7.425 E97.20857
G1 X18.809 Y7.495
G0 F3000 X18.739 Y7.991
G1 F1500 X-6.491 Y-17.239 E98.98868
G1 X-6.561 Y-17.309
G0 F3000 X-7.057 Y-17.239
G1 F1500 X18.739 Y8.556 E100.8087
G1 X18.809 Y8.626
G0 F3000 X18.739 Y9.122
G1 F1500 X-7.623 Y-17.239 E102.66864
G1 X-7.693 Y-17.309
G0 F3000 X-8.189 Y-17.239
G1 F1500 X18.739 Y9.688 E104.56852
G1 X18.809 Y9.758
G0 F3000 X18.739 Y10.253
G1 F1500 X-8.754 Y-17.239 E106.50827
G1 X-8.824 Y-17.309
G0 F3000 X-9.32 Y-17.239
G1 F1500 X18.739 Y10.819 E108.48795
G1 X18.809 Y10.889
G0 F3000 X18.739 Y11.385
G1 F1500 X-9.886 Y-17.239 E110.50756
G1 X-9.956 Y-17.309
G0 F3000 X-10.451 Y-17.239
G1 F1500 X18.739 Y11.95 E112.56704
G1 X18.809 Y12.02
G0 F3000 X18.739 Y12.516
G1 F1500 X-11.017 Y-17.239 E114.66645
G1 X-11.087 Y-17.309
G0 F3000 X-11.583 Y-17.239
G1 F1500 X18.739 Y13.082 E116.80579
G1 X18.809 Y13.152
G0 F3000 X18.739 Y13.647
G1 F1500 X-12.148 Y-17.239 E118.985
G1 X-12.218 Y-17.309
G0 F3000 X-12.714 Y-17.239
G1 F1500 X18.739 Y14.213 E121.20415
G1 X18.809 Y14.283
G0 F3000 X18.739 Y14.779
G1 F1500 X-13.28 Y-17.239 E123.46322
G1 X-13.35 Y-17.309
G0 F3000 X-13.845 Y-17.239
G1 F1500 X18.739 Y15.344 E125.76217
G1 X18.809 Y15.414
G0 F3000 X18.739 Y15.91
G1 F1500 X-14.411 Y-17.239 E128.10104
G1 X-14.481 Y-17.309
G0 F3000 X-14.977 Y-17.239
G1 F1500 X18.739 Y16.476 E130.47985
G1 X18.809 Y16.546
G0 F3000 X18.739 Y17.041
G1 F1500 X-15.542 Y-17.239 E132.89853
G1 X-15.612 Y-17.309
G0 F3000 X-16.108 Y-17.239
G1 F1500 X18.371 Y17.239 E135.33117
G1 X18.441 Y17.309
G0 F3000 X17.805 Y17.239
G1 F1500 X-16.674 Y-17.239 E137.76382
G1 X-16.744 Y-17.309
G0 F3000 X-17.239 Y-17.239
G1 F1500 X17.239 Y17.239 E140.19642
G1 X17.309 Y17.309
G0 F3000 X16.674 Y17.239
G1 F1500 X-17.805 Y-17.239 E142.62907
G1 X-17.875 Y-17.309
G0 F3000 X-18.371 Y-17.239
G1 F1500 X16.108 Y17.239 E145.06171
G1 X16.178 Y17.309
G0 F3000 X15.542 Y17.239
G1 F1500 X-18.739 Y-17.041 E147.48039
G1 X-18.809 Y-17.111
G0 F3000 X-18.739 Y-16.476
G1 F1500 X14.977 Y17.239 E149.8592
G1 X15.047 Y17.309
G0 F3000 X14.411 Y17.239
G1 F1500 X-18.739 Y-15.91 E152.19807
G1 X-18.809 Y-15.98
G0 F3000 X-18.739 Y-15.344
G1 F1500 X13.845 Y17.239 E154.49702
G1 X13.915 Y17.309
G0 F3000 X13.28 Y17.239
G1 F1500 X-18.739 Y-14.779 E156.75609
G1 X-18.809 Y-14.849
G0 F3000 X-18.739 Y-14.213
G1 F1500 X12.714 Y17.239 E158.97524
G1 X12.784 Y17.309
G0 F3000 X12.148 Y17.239
G1 F1500 X-18.739 Y-13.647 E161.15445
G1 X-18.809 Y-13.717
G0 F3000 X-18.739 Y-13.082
G1 F1500 X11.583 Y17.239 E163.29379
G1 X11.653 Y17.309
G0 F3000 X11.017 Y17.239
G1 F1500 X-18.739 Y-12.516 E165.3932
G1 X-18.809 Y-12.586
G0 F3000 X-18.739 Y-11.95
G1 F1500 X10.451 Y17.239 E167.45268
G1 X10.521 Y17.309
G0 F3000 X9.886 Y17.239
G1 F1500 X-18.739 Y-11.385 E169.47229
G1 X-18.809 Y-11.455
G0 F3000 X-18.739 Y-10.819
G1 F1500 X9.32 Y17.239 E171.45197
G1 X9.39 Y17.309
G0 F3000 X8.754 Y17.239
G1 F1500 X-18.739 Y-10.253 E173.39172
G1 X-18.809 Y-10.323
G0 F3000 X-18.739 Y-9.688
G1 F1500 X8.189 Y17.239 E175.2916
G1 X8.259 Y17.309
G0 F3000 X7.623 Y17.239
G1 F1500 X-18.739 Y-9.122 E177.15154
G1 X-18.809 Y-9.192
G0 F3000 X-18.739 Y-8.556
G1 F1500 X7.057 Y17.239 E178.97156
G1 X7.127 Y17.309
G0 F3000 X6.491 Y17.239
G1 F1500 X-18.739 Y-7.991 E180.75167
G1 X-18.809 Y-8.061
G0 F3000 X-18.739 Y-7.425
G1 F1500 X5.926 Y17.239 E182.49188
G1 X5.996 Y17.309
G0 F3000 X5.36 Y17.239
G1 F1500 X-18.739 Y-6.859 E184.19216
G1 X-18.809 Y-6.929
G0 F3000 X-18.739 Y-6.293
G1 F1500 X4.794 Y17.239 E185.85251
G1 X4.864 Y17.309
G0 F3000 X4.229 Y17.239
G1 F1500 X-18.739 Y-5.728 E187.47299
G1 X-18.809 Y-5.798
G0 F3000 X-18.739 Y-5.162
G1 F1500 X3.663 Y17.239 E189.05354
G1 X3.733 Y17.309
G0 F3000 X3.097 Y17.239
G1 F1500 X-18.739 Y-4.596 E190.59415
G1 X-18.809 Y-4.666
G0 F3000 X-18.739 Y-4.031
G1 F1500 X2.532 Y17.239 E192.0949
G1 X2.602 Y17.309
G0 F3000 X1.966 Y17.239
G1 F1500 X-18.739 Y-3.465 E193.55571
G1 X-18.809 Y-3.535
G0 F3000 X-18.739 Y-2.899
G1 F1500 X1.4 Y17.239 E194.97659
G1 X1.47 Y17.309
G0 F3000 X0.835 Y17.239
G1 F1500 X-18.739 Y-2.334 E196.35761
G1 X-18.809 Y-2.404
G0 F3000 X-18.739 Y-1.768
G1 F1500 X0.269 Y17.239 E197.69869
G1 X0.339 Y17.309
G0 F3000 X-.296 Y17.239
G1 F1500 X-18.739 Y-1.202 E198.99987
G1 X-18.809 Y-1.272
G0 F3000 X-18.739 Y-.637
G1 F1500 X-.861 Y17.239 E200.26119
G1 X-.791 Y17.309
G0 F3000 X-1.427 Y17.239
G1 F1500 X-18.739 Y-0.071 E201.48257
G1 X-18.809 Y-.141
G0 F3000 X-18.739 Y0.494
G1 F1500 X-1.993 Y17.239 E202.66406
G1 X-1.923 Y17.309
G0 F3000 X-2.559 Y17.239
G1 F1500 X-18.739 Y1.059 E203.80565
G1 X-18.809 Y0.989
G0 F3000 X-18.739 Y1.625
