;FLAVOR:Marlin
;TIME:7088
;Filament used: 5.99977m
;Layer height: 0.2
;MINX:35.029
;MINY:54.178
;MINZ:0.2
;MAXX:199.968
;MAXY:180.822
;MAXZ:10
;Generated with Cura_SteamEngine 4.1.0
M140 S60
M105
M190 S60
M104 S200
M105
M109 S200
M82 ;absolute extrusion mode
; Ender 3 Custom Start G-code
G28 ; Home all axes
G92 E0 ; Reset Extruder
G1 Z2.0 F3000 ; Move Z Axis up little to prevent scratching of Heat Bed
G1 X0.1 Y20 Z0.3 F5000.0 ; Move to start position
G1 X0.1 Y200.0 Z0.3 F1500.0 E15 ; Draw the first line
G1 X0.4 Y200.0 Z0.3 F5000.0 ; Move to side a little
G1 X0.4 Y20 Z0.3 F1500.0 E30 ; Draw the second line
G92 E0 ; Reset Extruder
G1 Z2.0 F3000 ; Move Z Axis up little to prevent scratching of Heat Bed
; End of custom start GCode
G92 E0
G92 E0
G1 F2400 E-5
;LAYER_COUNT:50
;LAYER:0
M107
M204 S500
M205 X10 Y10
G0 F3600 X38.653 Y55.466 Z0.2
;TYPE:SKIRT
G1 F2400 E0
G1 F1800 X39.333 Y55.065 E0.02626
G1 X40.051 Y54.735 E0.05254
G1 X40.798 Y54.48 E0.07879
G1 X41.567 Y54.301 E0.10505
G1 X42.351 Y54.201 E0.13134
G1 X42.946 Y54.178 E0.15114
G1 X52.811 Y54.178 E0.47926
G1 X53.6 Y54.218 E0.50553
G1 X54.38 Y54.337 E0.53177
G1 X55.145 Y54.535 E0.55806
G1 X55.671 Y54.721 E0.57661
G1 X84.858 Y66.225 E1.62006
G1 X86.593 Y65.504 E1.68255
G1 X93.04 Y62.494 E1.9192
G1 X93.278 Y62.388 E1.92787
G1 X98.416 Y60.195 E2.11367
G1 X99.121 Y59.934 E2.13867
G1 X102.15 Y58.974 E2.24436
G1 X102.917 Y58.773 E2.27073
G1 X105.261 Y58.285 E2.35036
G1 X106.034 Y58.164 E2.37639
G1 X108.075 Y57.949 E2.44465
G1 X108.855 Y57.906 E2.47063
G1 X110.936 Y57.896 E2.53984
G1 X111.762 Y57.936 E2.56735
G1 X114.024 Y58.166 E2.64297
G1 X114.819 Y58.289 E2.66973
G1 X117.066 Y58.755 E2.74605
G1 X117.81 Y58.947 E2.77161
G1 X120.372 Y59.748 E2.86089
G1 X121.084 Y60.01 E2.88612
G1 X124.165 Y61.314 E2.9974
G1 X124.842 Y61.64 E3.02239
G1 X128.871 Y63.824 E3.17482
G1 X129.511 Y64.211 E3.19969
G1 X133.415 Y66.84 E3.35624
G1 X144.981 Y66.84 E3.74092
G1 X144.991 Y66.829 E3.74142
G1 X145.714 Y66.082 E3.776
G1 X146.297 Y65.539 E3.80249
G1 X146.726 Y65.178 E3.82114
G1 X147.552 Y64.571 E3.85524
G1 X148.066 Y64.243 E3.87552
G1 X148.752 Y63.852 E3.90178
G1 X149.427 Y63.552 E3.92635
G1 X149.855 Y63.385 E3.94163
G1 X150.604 Y63.135 E3.96789
G1 X151.447 Y62.951 E3.99659
G1 X151.831 Y62.889 E4.00952
G1 X152.616 Y62.802 E4.03579
G1 X153.379 Y62.795 E4.06117
G1 X153.814 Y62.812 E4.07565
G1 X154.6 Y62.883 E4.1019
G1 X155.285 Y63.011 E4.12508
G1 X156.754 Y63.355 E4.17526
G1 X157.062 Y63.2 E4.18673
G1 X157.756 Y62.893 E4.21197
G1 X158.851 Y62.471 E4.251
G1 X159.512 Y62.249 E4.27419
G1 X160.432 Y61.986 E4.30602
G1 X161.117 Y61.824 E4.32943
G1 X161.894 Y61.676 E4.35573
G1 X162.571 Y61.577 E4.37849
G1 X163.226 Y61.511 E4.40039
G1 X163.957 Y61.472 E4.42473
G1 X164.566 Y61.468 E4.44499
G1 X165.651 Y61.537 E4.48115
G1 X166.526 Y61.654 E4.51051
G1 X167.302 Y61.798 E4.53676
G1 X167.992 Y61.996 E4.56064
G1 X168.663 Y62.223 E4.5842
G1 X169.397 Y62.514 E4.61046
G1 X170.053 Y62.851 E4.63499
G1 X170.604 Y63.168 E4.65613
G1 X171.267 Y63.596 E4.68238
G1 X171.905 Y64.107 E4.70957
G1 X172.376 Y64.527 E4.73056
G1 X172.938 Y65.082 E4.75683
G1 X173.503 Y65.774 E4.78654
G1 X173.915 Y66.343 E4.8099
G1 X174.345 Y67.006 E4.83619
G1 X174.738 Y67.779 E4.86503
G1 X174.795 Y67.909 E4.86975
G1 X175.257 Y68.081 E4.88615
G1 X175.908 Y68.398 E4.91023
G1 X176.285 Y68.604 E4.92452
G1 X176.958 Y69.017 E4.95078
G1 X177.437 Y69.386 E4.97089
G1 X178.193 Y69.313 E4.99615
G1 X179.219 Y69.266 E5.03032
G1 X179.957 Y69.267 E5.05486
G1 X181.082 Y69.322 E5.09232
G1 X181.861 Y69.4 E5.11836
G1 X183.031 Y69.576 E5.15772
G1 X183.805 Y69.733 E5.18398
G1 X184.559 Y69.967 E5.21024
G1 X185.286 Y70.276 E5.23651
G1 X185.904 Y70.613 E5.25993
G1 X187.879 Y71.806 E5.33667
G1 X188.489 Y72.214 E5.36108
G1 X190.314 Y73.566 E5.43662
G1 X190.903 Y74.049 E5.46195
G1 X192.397 Y75.4 E5.52895
G1 X192.951 Y75.954 E5.55501
G1 X194.197 Y77.332 E5.6168
G1 X194.696 Y77.944 E5.64306
G1 X195.73 Y79.351 E5.70114
G1 X196.179 Y80.034 E5.72832
G1 X197.055 Y81.533 E5.78607
G1 X197.432 Y82.263 E5.8134
G1 X198.138 Y83.829 E5.87053
G1 X198.441 Y84.612 E5.89845
G1 X198.974 Y86.243 E5.95552
G1 X199.18 Y87 E5.98162
G1 X199.536 Y88.628 E6.03704
G1 X199.662 Y89.377 E6.06231
G1 X199.875 Y91.176 E6.12256
G1 X199.927 Y91.932 E6.14776
G1 X199.968 Y93.919 E6.21387
G1 X199.947 Y94.681 E6.23922
G1 X199.776 Y96.895 E6.31308
G1 X199.682 Y97.641 E6.33809
G1 X199.232 Y100.208 E6.42477
G1 X199.054 Y100.985 E6.45128
G1 X198.11 Y104.321 E6.56659
G1 X197.862 Y105.057 E6.59242
G1 X196.465 Y108.602 E6.71915
G1 X196.167 Y109.265 E6.74333
G1 X194.094 Y113.36 E6.89599
G1 X193.736 Y113.992 E6.92015
G1 X190.868 Y118.549 E7.09923
G1 X190.45 Y119.149 E7.12355
G1 X187.683 Y122.747 E7.27452
G1 X187.171 Y123.348 E7.30078
G1 X186.6 Y123.894 E7.32706
G1 X186.241 Y124.174 E7.3422
G1 X185.865 Y124.766 E7.36553
G1 X185.377 Y125.386 E7.39177
G1 X184.868 Y125.917 E7.41623
G1 X184.293 Y126.463 E7.44261
G1 X184.2 Y126.55 E7.44684
G1 X180.397 Y130.045 E7.61863
G1 X179.74 Y130.586 E7.64694
G1 X177.544 Y132.201 E7.7376
G1 X176.869 Y132.645 E7.76448
G1 X174.676 Y133.931 E7.84903
G1 X173.975 Y134.296 E7.87532
G1 X173.59 Y134.449 E7.8891
G1 X173.248 Y134.716 E7.90353
G1 X172.255 Y135.308 E7.94198
G1 X167.974 Y137.447 E8.10115
G1 X167.787 Y137.537 E8.10805
G1 X163.314 Y139.625 E8.27224
G1 X162.583 Y139.922 E8.29848
G1 X162.102 Y140.063 E8.31515
G1 X161.74 Y140.28 E8.32919
G1 X161.266 Y140.513 E8.34675
G1 X152.512 Y144.451 E8.66602
G1 X151.776 Y144.738 E8.69229
G1 X151.753 Y144.744 E8.69308
G1 X151.095 Y145.159 E8.71896
G1 X142.345 Y149.909 E9.0501
G1 X141.633 Y150.25 E9.07636
G1 X141.561 Y150.276 E9.0789
G1 X141.506 Y150.324 E9.08133
G1 X140.945 Y150.727 E9.10431
G1 X132.204 Y156.436 E9.45155
G1 X131.522 Y156.833 E9.4778
G1 X131.466 Y156.858 E9.47984
G1 X130.857 Y157.418 E9.50735
G1 X127.161 Y160.371 E9.6647
G1 X122.68 Y164.642 E9.87059
G1 X122.081 Y165.157 E9.89687
G1 X121.434 Y165.609 E9.92312
G1 X120.744 Y165.994 E9.9494
G1 X120.554 Y166.076 E9.95628
G1 X120.005 Y166.54 E9.98019
G1 X119.264 Y167.04 E10.00992
G1 X115.4 Y169.338 E10.15945
G1 X114.985 Y169.568 E10.17523
G1 X110.092 Y172.089 E10.3583
G1 X109.373 Y172.414 E10.38454
G1 X108.821 Y172.6 E10.40392
G1 X108.79 Y172.622 E10.40518
G1 X108.106 Y173.016 E10.43144
G1 X107.519 Y173.285 E10.45291
G1 X103.245 Y175.037 E10.60655
G1 X102.692 Y175.24 E10.62614
G1 X98.199 Y176.696 E10.78323
G1 X97.436 Y176.901 E10.80951
G1 X96.889 Y176.99 E10.82794
G1 X96.813 Y177.026 E10.83074
G1 X96.068 Y177.289 E10.85701
G1 X95.652 Y177.401 E10.87134
G1 X91.783 Y178.324 E11.00364
G1 X91.212 Y178.438 E11.023
G1 X86.309 Y179.227 E11.18818
G1 X85.524 Y179.313 E11.21444
G1 X85.122 Y179.316 E11.22781
G1 X84.934 Y179.371 E11.23433
G1 X83.97 Y179.537 E11.26686
G1 X79.871 Y179.982 E11.404
G1 X79.569 Y180.009 E11.41408
G1 X74.897 Y180.333 E11.56984
G1 X74.107 Y180.348 E11.59613
G1 X73.815 Y180.324 E11.60587
G1 X73.15 Y180.421 E11.62822
G1 X72.723 Y180.449 E11.64245
G1 X68.372 Y180.619 E11.78728
G1 X68.261 Y180.623 E11.79097
G1 X63.844 Y180.733 E11.93793
G1 X63.055 Y180.712 E11.96418
G1 X62.806 Y180.68 E11.97253
G1 X62.275 Y180.746 E11.99033
G1 X61.761 Y180.766 E12.00744
G1 X52.968 Y180.82 E12.2999
G1 X52.922 Y180.82 E12.30143
G1 X42.948 Y180.822 E12.63317
G1 X42.159 Y180.782 E12.65944
G1 X41.378 Y180.663 E12.68572
G1 X40.614 Y180.465 E12.71197
G1 X39.873 Y180.191 E12.73824
G1 X39.164 Y179.844 E12.7645
G1 X38.494 Y179.426 E12.79076
G1 X37.869 Y178.943 E12.81704
G1 X37.431 Y178.537 E12.8369
G1 X37.314 Y178.42 E12.8424
G1 X36.784 Y177.834 E12.86868
G1 X36.317 Y177.198 E12.89493
G1 X35.916 Y176.518 E12.92118
G1 X35.586 Y175.8 E12.94746
G1 X35.331 Y175.053 E12.97372
G1 X35.152 Y174.284 E12.99998
G1 X35.052 Y173.5 E13.02627
G1 X35.029 Y172.905 E13.04607
G1 X35.029 Y163.139 E13.37089
G1 X35.069 Y162.35 E13.39716
G1 X35.188 Y161.57 E13.42341
G1 X35.386 Y160.805 E13.44969
G1 X35.66 Y160.065 E13.47594
G1 X36.008 Y159.356 E13.5022
G1 X36.426 Y158.685 E13.5285
G1 X36.909 Y158.061 E13.55474
G1 X37.314 Y157.624 E13.57456
G1 X37.431 Y157.507 E13.58006
G1 X38.017 Y156.977 E13.60634
G1 X38.653 Y156.51 E13.63259
G1 X39.333 Y156.109 E13.65884
G1 X40.051 Y155.779 E13.68513
G1 X40.798 Y155.524 E13.71138
G1 X41.567 Y155.345 E13.73764
G1 X42.351 Y155.245 E13.76393
G1 X42.946 Y155.222 E13.78373
G1 X52.722 Y155.222 E14.10888
G1 X53.519 Y155.263 E14.13543
G1 X62.482 Y156.184 E14.43511
G1 X71.009 Y156.447 E14.71885
G1 X79.015 Y156.064 E14.98544
G1 X86.441 Y155.081 E15.23458
G1 X93.272 Y153.552 E15.4674
G1 X99.512 Y151.53 E15.68557
G1 X105.194 Y149.055 E15.8917
G1 X110.357 Y146.155 E16.08866
G1 X114.934 Y142.946 E16.27458
G1 X128.265 Y132.877 E16.83023
G1 X144.187 Y120.725 E17.49642
G1 X144.289 Y120.648 E17.50067
G1 X146.849 Y118.76 E17.60647
G1 X147.508 Y118.324 E17.63275
G1 X148.207 Y117.956 E17.65902
G1 X148.94 Y117.662 E17.68529
G1 X149.698 Y117.443 E17.71153
G1 X150.3 Y117.327 E17.73192
G1 X153.992 Y116.762 E17.85615
G1 X156.341 Y116.173 E17.93669
G1 X158.269 Y115.483 E18.0048
G1 X160.166 Y114.573 E18.07478
G1 X161.857 Y113.526 E18.14093
G1 X163.461 Y112.292 E18.20824
G1 X165.092 Y110.756 E18.28276
G1 X166.806 Y108.807 E18.36908
G1 X168.715 Y106.183 E18.47701
G1 X170.347 Y103.495 E18.5816
G1 X170.357 Y103.466 E18.58262
G1 X171.242 Y101.089 E18.66698
G1 X171.5 Y100.231 E18.69678
G1 X171.686 Y99.368 E18.72615
G1 X171.761 Y98.722 E18.74778
G1 X171.772 Y98.083 E18.76903
G1 X171.734 Y97.651 E18.78346
G1 X171.65 Y97.198 E18.79878
G1 X171.503 Y96.699 E18.81608
G1 X171.277 Y96.158 E18.83558
G1 X170.98 Y95.612 E18.85626
G1 X170.508 Y94.922 E18.88406
G1 X169.855 Y94.145 E18.91782
G1 X168.904 Y93.215 E18.96206
G1 X167.502 Y92.083 E19.02199
G1 X166.534 Y91.415 E19.06111
G1 X165.668 Y90.971 E19.09348
G1 X162.095 Y89.599 E19.22078
G1 X160.576 Y89.218 E19.27286
G1 X158.768 Y88.941 E19.3337
G1 X158.268 Y88.878 E19.35046
G1 X158.227 Y88.883 E19.35184
G1 X157.518 Y88.95 E19.37552
G1 X156.784 Y88.985 E19.39996
G1 X156.107 Y88.985 E19.42248
G1 X155.294 Y88.943 E19.44956
G1 X155.046 Y88.917 E19.45785
G1 X154.994 Y88.984 E19.46067
G1 X154.448 Y89.554 E19.48692
G1 X153.847 Y90.067 E19.51321
G1 X153.198 Y90.516 E19.53945
G1 X152.32 Y90.984 E19.57255
G1 X150.694 Y91.723 E19.63195
G1 X149.96 Y92.013 E19.6582
G1 X149.2 Y92.227 E19.68446
G1 X148.422 Y92.363 E19.71073
G1 X147.477 Y92.422 E19.74222
G1 X132.981 Y92.44 E20.22436
G1 X132.192 Y92.401 E20.25063
G1 X131.411 Y92.282 E20.27691
G1 X130.646 Y92.086 E20.30318
G1 X129.906 Y91.812 E20.32942
G1 X129.196 Y91.466 E20.35569
G1 X128.434 Y90.985 E20.38566
G1 X125.955 Y89.212 E20.48703
G1 X123.504 Y87.519 E20.58611
G1 X122.295 Y86.785 E20.63315
G1 X118.875 Y85.107 E20.75985
G1 X118.137 Y84.85 E20.78585
G1 X117.018 Y84.591 E20.82405
G1 X116.146 Y84.463 E20.85336
G1 X114.991 Y84.363 E20.89192
G1 X113.236 Y84.356 E20.95029
G1 X111.617 Y84.518 E21.00441
G1 X108.159 Y85.223 E21.12179
G1 X106.775 Y85.586 E21.16938
G1 X102.691 Y86.829 E21.31137
G1 X98.456 Y88.403 E21.46164
G1 X96.813 Y89.038 E21.52022
G1 X89.922 Y91.847 E21.76773
G1 X89.177 Y92.108 E21.79398
G1 X88.409 Y92.292 E21.82025
G1 X87.626 Y92.397 E21.84653
G1 X87.192 Y92.421 E21.86098
G1 X87.119 Y92.423 E21.86341
G1 X86.329 Y92.405 E21.88969
G1 X85.546 Y92.307 E21.91594
G1 X84.776 Y92.13 E21.94222
G1 X84.191 Y91.939 E21.96269
G1 X51.425 Y79.778 E23.12513
G1 X42.946 Y79.778 E23.40714
G1 X42.157 Y79.738 E23.43342
G1 X41.377 Y79.619 E23.45966
G1 X40.612 Y79.421 E23.48594
G1 X39.872 Y79.147 E23.51219
G1 X39.163 Y78.799 E23.53846
G1 X38.492 Y78.381 E23.56475
G1 X37.868 Y77.898 E23.59099
G1 X37.431 Y77.493 E23.61081
G1 X37.314 Y77.376 E23.61632
G1 X36.784 Y76.79 E23.64259
G1 X36.317 Y76.154 E23.66884
G1 X35.916 Y75.474 E23.69509
G1 X35.586 Y74.756 E23.72138
G1 X35.331 Y74.009 E23.74763
G1 X35.152 Y73.24 E23.77389
G1 X35.052 Y72.456 E23.80018
G1 X35.029 Y71.861 E23.81998
G1 X35.029 Y62.095 E24.1448
G1 X35.069 Y61.306 E24.17108
G1 X35.188 Y60.526 E24.19732
G1 X35.386 Y59.761 E24.2236
G1 X35.66 Y59.021 E24.24985
G1 X36.008 Y58.312 E24.27612
G1 X36.426 Y57.641 E24.30241
G1 X36.909 Y57.017 E24.32866
G1 X37.314 Y56.58 E24.34847
G1 X37.431 Y56.463 E24.35398
G1 X38.017 Y55.933 E24.38026
G1 X38.653 Y55.466 E24.4065
G0 F3600 X38.907 Y55.778
G1 F1800 X39.572 Y55.392 E24.43207
G1 X40.274 Y55.077 E24.45766
G1 X41.005 Y54.837 E24.48326
G1 X41.756 Y54.674 E24.50881
G1 X42.521 Y54.59 E24.53441
G1 X42.946 Y54.578 E24.54855
G1 X52.811 Y54.578 E24.87666
G1 X53.579 Y54.618 E24.90224
G1 X54.339 Y54.737 E24.92783
G1 X55.082 Y54.935 E24.9534
G1 X55.525 Y55.093 E24.96905
G1 X84.863 Y66.657 E26.0179
G1 X86.755 Y65.871 E26.08604
G1 X93.209 Y62.857 E26.32296
G1 X93.435 Y62.756 E26.33119
G1 X98.573 Y60.563 E26.51699
G1 X99.242 Y60.315 E26.54073
G1 X102.271 Y59.355 E26.64641
G1 X102.999 Y59.164 E26.67144
G1 X105.343 Y58.676 E26.75108
G1 X106.076 Y58.562 E26.77575
G1 X108.117 Y58.347 E26.84401
G1 X108.856 Y58.306 E26.86862
G1 X110.937 Y58.296 E26.93784
G1 X111.722 Y58.334 E26.96398
G1 X113.984 Y58.564 E27.0396
G1 X114.738 Y58.68 E27.06498
G1 X116.985 Y59.146 E27.1413
G1 X117.69 Y59.329 E27.16553
G1 X120.252 Y60.13 E27.25481
G1 X120.928 Y60.378 E27.27876
G1 X124.009 Y61.682 E27.39003
G1 X124.652 Y61.991 E27.41376
G1 X128.681 Y64.175 E27.56618
G1 X129.287 Y64.543 E27.58977
G1 X133.292 Y67.24 E27.75036
G1 X145.163 Y67.24 E28.14519
G1 X145.279 Y67.108 E28.15104
G1 X146.002 Y66.361 E28.18561
G1 X146.554 Y65.845 E28.21074
G1 X146.983 Y65.484 E28.22939
G1 X147.767 Y64.908 E28.26175
G1 X148.281 Y64.58 E28.28203
G1 X148.95 Y64.2 E28.30762
G1 X149.572 Y63.924 E28.33025
G1 X150 Y63.757 E28.34553
G1 X150.73 Y63.515 E28.37111
G1 X151.51 Y63.346 E28.39766
G1 X151.894 Y63.284 E28.4106
G1 X152.659 Y63.201 E28.43619
G1 X153.363 Y63.195 E28.4596
G1 X153.798 Y63.212 E28.47408
G1 X154.564 Y63.282 E28.49967
G1 X155.194 Y63.4 E28.52099
G1 X156.755 Y63.765 E28.5743
G1 X156.773 Y63.768 E28.57491
G1 X156.817 Y63.77 E28.57638
G1 X157.241 Y63.557 E28.59216
G1 X157.9 Y63.266 E28.61612
G1 X158.995 Y62.844 E28.65515
G1 X159.622 Y62.634 E28.67714
G1 X160.542 Y62.371 E28.70897
G1 X161.191 Y62.217 E28.73115
G1 X161.968 Y62.069 E28.75746
G1 X162.611 Y61.975 E28.77907
G1 X163.266 Y61.909 E28.80097
G1 X163.959 Y61.872 E28.82405
G1 X164.568 Y61.868 E28.84431
G1 X165.598 Y61.933 E28.87863
G1 X166.473 Y62.05 E28.908
G1 X167.229 Y62.192 E28.93358
G1 X167.863 Y62.375 E28.95553
G1 X168.534 Y62.602 E28.97909
G1 X169.249 Y62.886 E29.00468
G1 X169.853 Y63.198 E29.02729
G1 X170.404 Y63.515 E29.04843
G1 X171.05 Y63.932 E29.074
G1 X171.639 Y64.406 E29.09915
G1 X172.11 Y64.826 E29.12014
G1 X172.657 Y65.367 E29.14573
G1 X173.179 Y66.009 E29.17325
G1 X173.591 Y66.578 E29.19661
G1 X174.009 Y67.224 E29.2222
G1 X174.371 Y67.94 E29.24889
G1 X174.496 Y68.223 E29.25918
G1 X175.117 Y68.456 E29.28124
G1 X175.716 Y68.749 E29.30342
G1 X176.093 Y68.955 E29.31771
G1 X176.748 Y69.359 E29.3433
G1 X177.327 Y69.805 E29.36761
G1 X177.47 Y69.784 E29.37242
G1 X178.211 Y69.713 E29.39718
G1 X179.237 Y69.666 E29.43134
G1 X179.937 Y69.667 E29.45462
G1 X181.062 Y69.722 E29.49208
G1 X181.802 Y69.795 E29.51681
G1 X182.972 Y69.971 E29.55617
G1 X183.725 Y70.125 E29.58173
G1 X184.459 Y70.356 E29.60732
G1 X185.165 Y70.662 E29.63292
G1 X185.697 Y70.955 E29.65312
G1 X187.672 Y72.148 E29.72986
G1 X188.251 Y72.536 E29.75304
G1 X190.076 Y73.888 E29.82858
G1 X190.634 Y74.345 E29.85257
G1 X192.128 Y75.696 E29.91957
G1 X192.654 Y76.222 E29.94431
G1 X193.9 Y77.6 E30.0061
G1 X194.374 Y78.181 E30.03104
G1 X195.408 Y79.588 E30.08911
G1 X195.834 Y80.236 E30.11491
G1 X196.71 Y81.735 E30.17265
G1 X197.067 Y82.428 E30.19858
G1 X197.773 Y83.994 E30.25571
G1 X198.061 Y84.736 E30.28219
G1 X198.594 Y86.367 E30.33926
G1 X198.789 Y87.085 E30.364
G1 X199.145 Y88.713 E30.41943
G1 X199.265 Y89.424 E30.44341
G1 X199.478 Y91.223 E30.50366
G1 X199.527 Y91.94 E30.52757
G1 X199.568 Y93.927 E30.59367
G1 X199.548 Y94.65 E30.61773
G1 X199.377 Y96.864 E30.69158
G1 X199.288 Y97.572 E30.71532
G1 X198.838 Y100.139 E30.802
G1 X198.669 Y100.876 E30.82715
G1 X197.725 Y104.212 E30.94246
G1 X197.49 Y104.91 E30.96696
G1 X196.093 Y108.455 E31.09369
G1 X195.81 Y109.084 E31.11663
