;FLAVOR:Marlin
;TIME:9024
;Filament used: 16.083m
;Layer height: 0.3
;MINX:45.585
;MINY:37.295
;MINZ:0.2
;MAXX:199.702
;MAXY:175.307
;MAXZ:10.1
;Generated with Cura_SteamEngine 4.1.0
M140 S60
M105
M190 S60
M104 S200
M105
M109 S200
M82 ;absolute extrusion mode
; Ender 3 Custom Start G-code
G28 ; Home all axes
G92 E0 ; Reset Extruder
G1 Z2.0 F3000 ; Move Z Axis up little to prevent scratching of Heat Bed
G1 X0.1 Y20 Z0.3 F5000.0 ; Move to start position
G1 X0.1 Y200.0 Z0.3 F1500.0 E15 ; Draw the first line
G1 X0.4 Y200.0 Z0.3 F5000.0 ; Move to side a little
G1 X0.4 Y20 Z0.3 F1500.0 E30 ; Draw the second line
G92 E0 ; Reset Extruder
G1 Z2.0 F3000 ; Move Z Axis up little to prevent scratching of Heat Bed
; End of custom start GCode
G92 E0
G92 E0
G1 F2400 E-5
;LAYER_COUNT:34
;LAYER:0
M107
M204 S500
M205 X10 Y10
G0 F3600 X81.018 Y41.617 Z0.2
;TYPE:SKIRT
G1 F2400 E0
G1 F1800 X81.414 Y40.934 E0.02626
G1 X81.878 Y40.295 E0.05252
G1 X82.404 Y39.706 E0.07879
G1 X82.943 Y39.209 E0.10317
G1 X83.054 Y39.116 E0.10799
G1 X83.684 Y38.64 E0.13425
G1 X84.359 Y38.231 E0.1605
G1 X85.072 Y37.891 E0.18678
G1 X85.816 Y37.626 E0.21304
G1 X86.582 Y37.437 E0.23929
G1 X87.364 Y37.326 E0.26556
G1 X88.064 Y37.295 E0.28886
G1 X158.668 Y37.306 E2.63716
G1 X158.68 Y37.306 E2.63756
G1 X159.293 Y37.307 E2.65795
G1 X160.081 Y37.348 E2.68419
G1 X160.862 Y37.469 E2.71048
G1 X161.626 Y37.668 E2.73674
G1 X162.366 Y37.943 E2.76299
G1 X163.075 Y38.292 E2.78928
G1 X163.744 Y38.711 E2.81553
G1 X164.111 Y38.983 E2.83073
G1 X164.22 Y39.069 E2.83534
G1 X164.815 Y39.589 E2.86163
G1 X165.354 Y40.167 E2.88791
G1 X165.831 Y40.796 E2.91417
G1 X166.243 Y41.469 E2.94041
G1 X166.584 Y42.182 E2.9667
G1 X166.852 Y42.925 E2.99297
G1 X166.972 Y43.365 E3.00814
G1 X168.296 Y48.859 E3.1961
G1 X170.069 Y53.918 E3.3744
G1 X172.336 Y58.768 E3.55246
G1 X175.074 Y63.362 E3.73034
G1 X178.262 Y67.659 E3.9083
G1 X181.872 Y71.626 E4.08669
G1 X185.852 Y75.204 E4.2647
G1 X190.469 Y78.584 E4.45501
G1 X191.081 Y79.082 E4.48125
G1 X191.641 Y79.64 E4.50755
G1 X192.141 Y80.251 E4.53381
G1 X192.687 Y81.103 E4.56746
G1 X194.658 Y84.667 E4.70292
G1 X195.008 Y85.385 E4.72949
G1 X196.613 Y89.152 E4.86568
G1 X196.884 Y89.888 E4.89177
G1 X198.105 Y93.806 E5.02826
G1 X198.299 Y94.56 E5.05416
G1 X199.122 Y98.574 E5.19044
G1 X199.241 Y99.351 E5.21658
G1 X199.656 Y103.427 E5.35285
G1 X199.696 Y104.206 E5.3788
G1 X199.702 Y108.304 E5.5151
G1 X199.663 Y109.09 E5.54127
G1 X199.256 Y113.168 E5.67758
G1 X199.139 Y113.945 E5.70371
G1 X198.323 Y117.965 E5.84015
G1 X198.131 Y118.718 E5.86599
G1 X196.921 Y122.63 E6.00219
G1 X196.649 Y123.373 E6.0285
G1 X195.047 Y127.147 E6.16487
G1 X194.705 Y127.852 E6.19093
G1 X192.742 Y131.428 E6.32661
G1 X192.327 Y132.101 E6.35291
G1 X191.847 Y132.727 E6.37915
G1 X191.305 Y133.302 E6.40543
G1 X190.538 Y133.95 E6.43882
G1 X185.851 Y137.411 E6.63261
G1 X181.858 Y140.998 E6.81113
G1 X178.253 Y144.956 E6.9892
G1 X175.057 Y149.264 E7.16761
G1 X172.321 Y153.85 E7.34522
G1 X170.051 Y158.7 E7.52333
G1 X168.275 Y163.764 E7.70181
G1 X166.951 Y169.25 E7.88952
G1 X166.728 Y170.007 E7.91577
G1 X166.428 Y170.738 E7.94205
G1 X166.057 Y171.435 E7.96831
G1 X165.616 Y172.09 E7.99457
G1 X165.112 Y172.698 E8.02084
G1 X164.549 Y173.252 E8.04711
G1 X164.208 Y173.538 E8.06191
G1 X164.098 Y173.625 E8.06658
G1 X163.454 Y174.083 E8.09286
G1 X162.768 Y174.473 E8.11911
G1 X162.046 Y174.792 E8.14536
G1 X161.295 Y175.037 E8.17163
G1 X160.523 Y175.204 E8.1979
G1 X159.738 Y175.292 E8.22418
G1 X159.258 Y175.307 E8.24015
G1 X88.647 Y175.296 E10.58868
G1 X88.635 Y175.296 E10.58908
G1 X88.029 Y175.295 E10.60924
G1 X87.241 Y175.254 E10.63548
G1 X86.46 Y175.133 E10.66177
G1 X85.696 Y174.934 E10.68803
G1 X84.956 Y174.658 E10.71429
G1 X84.247 Y174.31 E10.74056
G1 X83.578 Y173.891 E10.76682
G1 X83.033 Y173.474 E10.78964
G1 X82.922 Y173.381 E10.79446
G1 X82.343 Y172.844 E10.82072
G1 X81.821 Y172.251 E10.847
G1 X81.362 Y171.608 E10.87328
G1 X80.971 Y170.922 E10.89954
G1 X80.65 Y170.201 E10.92579
G1 X80.405 Y169.45 E10.95206
G1 X80.245 Y168.732 E10.97653
G1 X78.787 Y160.31 E11.26081
G1 X76.59 Y152.354 E11.53533
G1 X73.62 Y144.659 E11.80967
G1 X69.913 Y137.291 E12.084
G1 X65.494 Y130.312 E12.35874
G1 X60.419 Y123.811 E12.63305
G1 X54.725 Y117.833 E12.90764
G1 X48.293 Y112.291 E13.19003
G1 X47.722 Y111.746 E13.21628
G1 X47.209 Y111.146 E13.24254
G1 X46.759 Y110.497 E13.2688
G1 X46.377 Y109.806 E13.29506
G1 X46.066 Y109.08 E13.32133
G1 X45.831 Y108.326 E13.3476
G1 X45.673 Y107.552 E13.37388
G1 X45.585 Y106.382 E13.4129
G1 X45.585 Y106.198 E13.41902
G1 X45.625 Y105.409 E13.4453
G1 X45.744 Y104.629 E13.47154
G1 X45.942 Y103.864 E13.49782
G1 X46.216 Y103.124 E13.52407
G1 X46.564 Y102.415 E13.55034
G1 X46.982 Y101.744 E13.57663
G1 X47.465 Y101.12 E13.60287
G1 X48.293 Y100.289 E13.64189
G1 X54.735 Y94.738 E13.92473
G1 X60.43 Y88.764 E14.19924
G1 X65.507 Y82.263 E14.47359
G1 X69.922 Y75.296 E14.74792
G1 X73.631 Y67.932 E15.02216
G1 X76.604 Y60.229 E15.29679
G1 X78.808 Y52.27 E15.57147
G1 X80.267 Y43.855 E15.85553
G1 X80.441 Y43.085 E15.88178
G1 X80.692 Y42.336 E15.90806
G1 X81.018 Y41.617 E15.93431
G0 F3600 X81.401 Y41.747
G1 F1800 X81.793 Y41.085 E15.9599
G1 X82.253 Y40.468 E15.9855
G1 X82.773 Y39.902 E16.01106
G1 X83.2 Y39.516 E16.03021
G1 X83.311 Y39.423 E16.03502
G1 X83.925 Y38.96 E16.0606
G1 X84.584 Y38.564 E16.08617
G1 X85.281 Y38.238 E16.11176
G1 X86.008 Y37.986 E16.13736
G1 X86.757 Y37.811 E16.16294
G1 X87.52 Y37.715 E16.18852
G1 X88.064 Y37.695 E16.20662
G1 X158.668 Y37.706 E18.55492
G1 X158.679 Y37.706 E18.55529
G1 X159.292 Y37.707 E18.57568
G1 X160.06 Y37.748 E18.60126
G1 X160.82 Y37.869 E18.62685
G1 X161.563 Y38.068 E18.65243
G1 X162.281 Y38.343 E18.67801
G1 X162.967 Y38.691 E18.70359
G1 X163.864 Y39.298 E18.73962
G1 X163.973 Y39.384 E18.74423
G1 X164.551 Y39.891 E18.76981
G1 X165.073 Y40.455 E18.79537
G1 X165.534 Y41.071 E18.82096
G1 X165.929 Y41.731 E18.84654
G1 X166.253 Y42.428 E18.8721
G1 X166.583 Y43.459 E18.90811
G1 X167.91 Y48.965 E19.09648
G1 X169.699 Y54.069 E19.27637
G1 X171.981 Y58.951 E19.45561
G1 X174.744 Y63.588 E19.63514
G1 X177.959 Y67.922 E19.81462
G1 X181.581 Y71.901 E19.99358
G1 X185.609 Y75.523 E20.17375
G1 X190.232 Y78.907 E20.3643
G1 X190.828 Y79.393 E20.38988
G1 X191.371 Y79.938 E20.41547
G1 X191.854 Y80.537 E20.44106
G1 X192.337 Y81.297 E20.47101
G1 X194.308 Y84.861 E20.60647
G1 X194.64 Y85.541 E20.63164
G1 X196.245 Y89.308 E20.76783
G1 X196.502 Y90.007 E20.7926
G1 X197.723 Y93.925 E20.92909
G1 X197.907 Y94.641 E20.95368
G1 X198.73 Y98.655 E21.08996
G1 X198.843 Y99.391 E21.11473
G1 X199.258 Y103.467 E21.251
G1 X199.296 Y104.206 E21.27561
G1 X199.302 Y108.304 E21.41191
G1 X199.265 Y109.05 E21.43675
G1 X198.858 Y113.128 E21.57306
G1 X198.747 Y113.865 E21.59785
G1 X197.931 Y117.885 E21.73429
G1 X197.749 Y118.6 E21.75882
G1 X196.539 Y122.512 E21.89502
G1 X196.281 Y123.216 E21.91996
G1 X194.679 Y126.99 E22.05632
G1 X194.354 Y127.66 E22.08109
G1 X192.391 Y131.236 E22.21677
G1 X191.986 Y131.89 E22.24236
G1 X191.516 Y132.499 E22.26794
G1 X190.985 Y133.055 E22.29351
G1 X190.3 Y133.628 E22.32322
G1 X185.606 Y137.094 E22.51729
G1 X181.573 Y140.718 E22.69763
G1 X177.945 Y144.7 E22.87679
G1 X174.724 Y149.041 E23.05658
G1 X171.968 Y153.661 E23.23551
G1 X169.681 Y158.548 E23.41497
G1 X167.892 Y163.648 E23.59473
G1 X166.563 Y169.156 E23.78318
G1 X166.343 Y169.893 E23.80876
G1 X166.049 Y170.604 E23.83435
G1 X165.683 Y171.28 E23.85992
G1 X165.248 Y171.914 E23.88549
G1 X164.749 Y172.5 E23.91109
G1 X163.959 Y173.224 E23.94673
G1 X163.849 Y173.311 E23.9514
G1 X163.222 Y173.756 E23.97697
G1 X162.552 Y174.134 E24.00256
G1 X161.847 Y174.44 E24.02812
G1 X161.113 Y174.671 E24.05371
G1 X160.359 Y174.825 E24.07931
G1 X159.258 Y174.907 E24.11603
G1 X88.647 Y174.896 E26.46456
G1 X88.636 Y174.896 E26.46493
G1 X88.03 Y174.895 E26.48508
G1 X87.262 Y174.854 E26.51066
G1 X86.502 Y174.733 E26.53626
G1 X85.759 Y174.534 E26.56184
G1 X85.041 Y174.259 E26.58741
G1 X84.355 Y173.911 E26.613
G1 X83.709 Y173.494 E26.63857
G1 X83.29 Y173.167 E26.65625
G1 X83.179 Y173.074 E26.66107
G1 X82.615 Y172.55 E26.68667
G1 X82.11 Y171.971 E26.71223
G1 X81.667 Y171.342 E26.73781
G1 X81.292 Y170.67 E26.76341
G1 X80.988 Y169.964 E26.78898
G1 X80.76 Y169.229 E26.81457
G1 X80.639 Y168.664 E26.83379
G1 X79.178 Y160.225 E27.11865
G1 X76.969 Y152.226 E27.39465
G1 X73.986 Y144.497 E27.6702
G1 X70.258 Y137.086 E27.94612
G1 X65.822 Y130.082 E28.22187
G1 X60.723 Y123.55 E28.49748
G1 X55 Y117.541 E28.77348
G1 X48.555 Y111.988 E29.05643
G1 X47.999 Y111.456 E29.08203
G1 X47.501 Y110.87 E29.10761
G1 X47.067 Y110.235 E29.13319
G1 X46.701 Y109.558 E29.15879
G1 X46.408 Y108.847 E29.18436
G1 X46.19 Y108.11 E29.20993
G1 X46.049 Y107.353 E29.23554
G1 X45.985 Y106.382 E29.2679
G1 X45.985 Y106.198 E29.27402
G1 X46.025 Y105.43 E29.2996
G1 X46.144 Y104.67 E29.32519
G1 X46.342 Y103.927 E29.35076
G1 X46.616 Y103.208 E29.37635
G1 X46.963 Y102.522 E29.40192
G1 X47.379 Y101.875 E29.42751
G1 X47.86 Y101.275 E29.45308
G1 X48.554 Y100.592 E29.48547
G1 X55.014 Y95.025 E29.7691
G1 X60.728 Y89.031 E30.04454
G1 X65.837 Y82.49 E30.32059
G1 X70.269 Y75.496 E30.59598
G1 X73.997 Y68.094 E30.87164
G1 X76.983 Y60.357 E31.14747
G1 X79.199 Y52.355 E31.42363
G1 X80.661 Y43.923 E31.70827
G1 X80.831 Y43.173 E31.73385
G1 X81.079 Y42.445 E31.75943
G1 X81.401 Y41.747 E31.78499
G0 F3600 X81.784 Y41.878
G1 F1800 X82.172 Y41.239 E31.80986
G1 X82.627 Y40.645 E31.83474
G1 X83.142 Y40.102 E31.85963
G1 X83.456 Y39.822 E31.87363
G1 X83.567 Y39.729 E31.87844
G1 X84.166 Y39.28 E31.90334
G1 X84.808 Y38.898 E31.92819
G1 X85.488 Y38.586 E31.95307
G1 X86.198 Y38.348 E31.97798
G1 X86.928 Y38.188 E32.00284
G1 X87.672 Y38.106 E32.02773
G1 X88.064 Y38.095 E32.04077
G1 X158.668 Y38.106 E34.38907
G1 X158.678 Y38.106 E34.38941
G1 X159.291 Y38.107 E34.40979
G1 X160.038 Y38.148 E34.43468
G1 X160.777 Y38.269 E34.45958
G1 X161.498 Y38.468 E34.48446
G1 X162.194 Y38.742 E34.50934
G1 X162.856 Y39.089 E34.5342
G1 X163.616 Y39.612 E34.56488
G1 X163.725 Y39.698 E34.5695
G1 X164.287 Y40.192 E34.59439
G1 X164.792 Y40.743 E34.61925
G1 X165.236 Y41.345 E34.64413
G1 X165.614 Y41.991 E34.66902
G1 X165.92 Y42.673 E34.69388
G1 X166.194 Y43.553 E34.72454
G1 X167.526 Y49.08 E34.91363
G1 X169.328 Y54.221 E35.09482
G1 X171.627 Y59.139 E35.27538
G1 X174.411 Y63.81 E35.45624
G1 X177.647 Y68.173 E35.63691
G1 X181.304 Y72.191 E35.81762
G1 X185.351 Y75.829 E35.99861
G1 X189.996 Y79.23 E36.19009
G1 X190.575 Y79.703 E36.21496
G1 X191.1 Y80.236 E36.23984
G1 X191.566 Y80.822 E36.26474
G1 X191.987 Y81.49 E36.291
G1 X193.958 Y85.054 E36.42646
G1 X194.272 Y85.698 E36.45029
G1 X195.877 Y89.465 E36.58648
G1 X196.12 Y90.126 E36.60991
G1 X197.341 Y94.044 E36.7464
G1 X197.515 Y94.721 E36.76965
G1 X198.338 Y98.735 E36.90593
G1 X198.445 Y99.432 E36.92939
G1 X198.86 Y103.508 E37.06566
G1 X198.896 Y104.207 E37.08894
G1 X198.902 Y108.305 E37.22524
G1 X198.867 Y109.01 E37.24871
G1 X198.46 Y113.088 E37.38502
G1 X198.355 Y113.785 E37.40847
G1 X197.539 Y117.805 E37.5449
G1 X197.366 Y118.481 E37.56811
G1 X196.156 Y122.393 E37.7043
G1 X195.913 Y123.06 E37.72791
G1 X194.311 Y126.834 E37.86428
G1 X194.003 Y127.467 E37.88769
G1 X192.04 Y131.043 E38.02337
G1 X191.646 Y131.679 E38.04826
G1 X191.186 Y132.269 E38.07314
G1 X190.665 Y132.806 E38.09802
G1 X190.062 Y133.306 E38.12408
G1 X185.35 Y136.786 E38.31891
G1 X181.296 Y140.428 E38.50016
G1 X177.629 Y144.453 E38.68126
G1 X174.396 Y148.81 E38.86172
G1 X171.609 Y153.481 E39.04263
G1 X169.31 Y158.395 E39.22307
G1 X167.509 Y163.53 E39.40406
G1 X166.174 Y169.062 E39.59334
G1 X165.96 Y169.779 E39.61822
G1 X165.67 Y170.469 E39.64312
G1 X165.309 Y171.124 E39.66799
G1 X164.88 Y171.736 E39.69285
G1 X164.388 Y172.3 E39.71774
G1 X163.711 Y172.91 E39.74805
G1 X163.601 Y172.997 E39.75272
G1 X162.991 Y173.429 E39.77758
G1 X162.337 Y173.794 E39.80249
G1 X161.649 Y174.086 E39.82735
G1 X160.933 Y174.304 E39.85224
G1 X160.198 Y174.444 E39.87713
G1 X159.258 Y174.507 E39.90846
G1 X88.647 Y174.496 E42.25699
G1 X88.636 Y174.496 E42.25736
G1 X88.03 Y174.495 E42.27752
G1 X87.284 Y174.454 E42.30237
G1 X86.545 Y174.333 E42.32727
G1 X85.824 Y174.134 E42.35215
G1 X85.128 Y173.86 E42.37703
G1 X84.466 Y173.512 E42.4019
G1 X83.844 Y173.096 E42.42679
G1 X83.546 Y172.861 E42.43941
G1 X83.435 Y172.768 E42.44423
G1 X82.889 Y172.257 E42.4691
G1 X82.399 Y171.691 E42.494
G1 X81.973 Y171.077 E42.51886
G1 X81.615 Y170.42 E42.54374
G1 X81.329 Y169.729 E42.56862
G1 X81.118 Y169.011 E42.59351
G1 X81.034 Y168.596 E42.60759
G1 X79.571 Y160.142 E42.89295
G1 X77.351 Y152.105 E43.17027
G1 X74.351 Y144.331 E43.44742
G1 X70.608 Y136.891 E43.72443
G1 X66.152 Y129.855 E44.00143
G1 X61.027 Y123.289 E44.27847
G1 X55.274 Y117.249 E44.5559
G1 X48.816 Y111.685 E44.83942
G1 X48.276 Y111.167 E44.86431
G1 X47.794 Y110.594 E44.88921
G1 X47.377 Y109.974 E44.91406
G1 X47.028 Y109.312 E44.93895
G1 X46.751 Y108.617 E44.96384
G1 X46.551 Y107.896 E44.98872
G1 X46.428 Y107.158 E45.01361
G1 X46.385 Y106.382 E45.03946
G1 X46.385 Y106.198 E45.04558
G1 X46.425 Y105.451 E45.07046
G1 X46.544 Y104.713 E45.09532
G1 X46.742 Y103.991 E45.12022
G1 X47.015 Y103.295 E45.14509
G1 X47.362 Y102.632 E45.16998
G1 X47.777 Y102.009 E45.19488
G1 X48.256 Y101.435 E45.21974
G1 X48.816 Y100.895 E45.24562
G1 X55.283 Y95.322 E45.52956
G1 X61.031 Y89.292 E45.80664
G1 X66.161 Y82.725 E46.0838
G1 X70.62 Y75.688 E46.36088
G1 X74.367 Y68.248 E46.63795
G1 X77.362 Y60.488 E46.91461
G1 X79.589 Y52.446 E47.19215
G1 X81.055 Y43.992 E47.47753
G1 X81.222 Y43.263 E47.5024
G1 X81.466 Y42.555 E47.52731
G1 X81.784 Y41.878 E47.55219
G0 F3600 X82.166 Y42.012
G1 F1800 X82.551 Y41.395 E47.57638
G1 X83 Y40.825 E47.60051
G1 X83.713 Y40.129 E47.63365
G1 X83.824 Y40.036 E47.63847
G1 X84.406 Y39.601 E47.66263
G1 X85.032 Y39.232 E47.6868
G1 X85.694 Y38.935 E47.71093
G1 X86.386 Y38.712 E47.73512
G1 X87.097 Y38.566 E47.75926
G1 X88.064 Y38.495 E47.79151
G1 X158.668 Y38.506 E50.13981
G1 X158.678 Y38.506 E50.14014
G1 X159.291 Y38.507 E50.16053
G1 X160.016 Y38.548 E50.18468
G1 X160.732 Y38.669 E50.20883
G1 X161.431 Y38.867 E50.23299
G1 X162.104 Y39.141 E50.25716
G1 X162.742 Y39.488 E50.28132
G1 X163.368 Y39.926 E50.30673
G1 X163.477 Y40.012 E50.31135
G1 X164.022 Y40.492 E50.3355
G1 X164.51 Y41.03 E50.35966
G1 X164.937 Y41.618 E50.38383
G1 X165.296 Y42.249 E50.40798
G1 X165.584 Y42.916 E50.43214
G1 X165.805 Y43.646 E50.45751
G1 X167.142 Y49.191 E50.64722
G1 X168.958 Y54.374 E50.82988
G1 X171.275 Y59.332 E51.01191
G1 X174.073 Y64.025 E51.19363
G1 X177.335 Y68.424 E51.37578
G1 X181.023 Y72.475 E51.55799
G1 X185.103 Y76.144 E51.74049
G1 X189.76 Y79.553 E51.93245
G1 X190.321 Y80.013 E51.95658
G1 X190.829 Y80.533 E51.98076
G1 X191.276 Y81.105 E52.0049
G1 X191.637 Y81.684 E52.0276
G1 X193.608 Y85.248 E52.16305
G1 X193.904 Y85.855 E52.18552
G1 X195.509 Y89.622 E52.3217
G1 X195.738 Y90.245 E52.34378
G1 X196.959 Y94.163 E52.48028
G1 X197.123 Y94.801 E52.50219
G1 X197.946 Y98.815 E52.63847
G1 X198.047 Y99.472 E52.66058
G1 X198.462 Y103.548 E52.79685
G1 X198.496 Y104.207 E52.81879
G1 X198.502 Y108.305 E52.95509
G1 X198.469 Y108.97 E52.97724
G1 X198.062 Y113.048 E53.11355
G1 X197.963 Y113.706 E53.13568
G1 X197.147 Y117.726 E53.27211
G1 X196.984 Y118.363 E53.29398
G1 X195.774 Y122.275 E53.43018
G1 X195.544 Y122.904 E53.45245
G1 X193.942 Y126.678 E53.58882
G1 X193.653 Y127.275 E53.61088
G1 X191.69 Y130.851 E53.74656
G1 X191.306 Y131.467 E53.7707
G1 X190.856 Y132.038 E53.79488
G1 X190.347 Y132.556 E53.81904
G1 X189.825 Y132.984 E53.84149
G1 X185.101 Y136.473 E54.03682
G1 X181.01 Y140.148 E54.21972
G1 X177.323 Y144.196 E54.40184
G1 X174.063 Y148.588 E54.58376
G1 X171.256 Y153.293 E54.76598
G1 X168.94 Y158.243 E54.94775
G1 X167.123 Y163.424 E55.13036
G1 X165.785 Y168.968 E55.32005
G1 X165.576 Y169.664 E55.34422
G1 X165.292 Y170.332 E55.36836
G1 X164.936 Y170.966 E55.39254
G1 X164.512 Y171.556 E55.41671
G1 X164.027 Y172.096 E55.44085
G1 X163.463 Y172.597 E55.46594
G1 X163.353 Y172.684 E55.4706
G1 X162.76 Y173.102 E55.49474
G1 X162.124 Y173.453 E55.5189
G1 X161.453 Y173.732 E55.54307
G1 X160.756 Y173.935 E55.56721
