;FLAVOR:Marlin
;TIME:1418
;Filament used: 1.995m
;Layer height: 0.3
;Generated with Cura_SteamEngine 1.2.1
M190 S35
M104 S220
M109 S220
G28
G1 Z50.00 F400
G92 E0
G1 F200 E3
G92 E0
M132 X Y Z A
M907 X100 Y100 Z50 A100
;LAYER_COUNT:7
;LAYER:0
M107
G0 F3000 X49.147 Y-2.255 Z0.3
;TYPE:SKIRT
G1 F1500 X49.42 Y-1.699 E0.0309
G1 X49.619 Y-1.112 E0.06183
G1 X49.741 Y-.505 E0.09271
G1 X49.783 Y0.113 E0.12362
G1 X49.745 Y0.731 E0.15451
G1 X49.629 Y1.339 E0.18539
G1 X49.435 Y1.928 E0.21633
G1 X49.133 Y2.544 E0.25055
G1 X26.521 Y41.443 E2.4953
G1 X26.176 Y41.958 E2.52622
G1 X25.767 Y42.423 E2.55712
G1 X25.302 Y42.832 E2.58802
G1 X24.788 Y43.178 E2.61893
G1 X24.234 Y43.455 E2.64983
G1 X23.649 Y43.658 E2.68072
G1 X23.043 Y43.784 E2.7116
G1 X22.356 Y43.831 E2.74596
G1 X-22.621 Y43.691 E4.98988
G1 X-23.239 Y43.649 E5.02078
G1 X-23.846 Y43.528 E5.05166
G1 X-24.433 Y43.33 E5.08257
G1 X-24.989 Y43.057 E5.11347
G1 X-25.506 Y42.716 E5.14437
G1 X-25.974 Y42.311 E5.17525
G1 X-26.387 Y41.848 E5.2062
G1 X-26.77 Y41.279 E5.24042
G1 X-49.152 Y2.244 E7.48531
G1 X-49.425 Y1.688 E7.51621
G1 X-49.624 Y1.101 E7.54713
G1 X-49.745 Y0.494 E7.57801
G1 X-49.788 Y-.124 E7.60892
G1 X-49.751 Y-.742 E7.6398
G1 X-49.634 Y-1.351 E7.67074
G1 X-49.44 Y-1.939 E7.70163
G1 X-49.137 Y-2.558 E7.73602
G1 X-26.511 Y-41.447 E9.98068
G1 X-26.166 Y-41.961 E10.01157
G1 X-25.757 Y-42.426 E10.04246
G1 X-25.292 Y-42.835 E10.07336
G1 X-24.778 Y-43.181 E10.10427
G1 X-24.223 Y-43.457 E10.1352
G1 X-23.638 Y-43.66 E10.16609
G1 X-23.032 Y-43.786 E10.19697
G1 X-22.347 Y-43.833 E10.23122
G1 X22.632 Y-43.69 E12.47525
G1 X23.25 Y-43.648 E12.50615
G1 X23.858 Y-43.527 E12.53708
G1 X24.444 Y-43.329 E12.56794
G1 X25.001 Y-43.056 E12.59888
G1 X25.517 Y-42.715 E12.62974
G1 X25.986 Y-42.309 E12.66069
G1 X26.398 Y-41.847 E12.69157
G1 X26.781 Y-41.277 E12.72583
G1 X49.147 Y-2.255 E14.96976
G0 F3000 X48.8 Y-2.056
G1 F1500 X49.06 Y-1.523 E14.99934
G1 X49.245 Y-.96 E15.02891
G1 X49.354 Y-.377 E15.0585
G1 X49.382 Y0.216 E15.08812
G1 X49.331 Y0.806 E15.11766
G1 X49.201 Y1.385 E15.14727
G1 X48.994 Y1.941 E15.17687
G1 X48.787 Y2.343 E15.19943
G1 X26.175 Y41.242 E17.44417
G1 X25.843 Y41.734 E17.47378
G1 X25.448 Y42.176 E17.50336
G1 X24.997 Y42.561 E17.53294
G1 X24.499 Y42.882 E17.5625
G1 X23.962 Y43.133 E17.59207
G1 X23.396 Y43.31 E17.62166
G1 X22.811 Y43.409 E17.65126
G1 X22.357 Y43.431 E17.67394
G1 X-22.62 Y43.291 E19.91786
G1 X-23.211 Y43.249 E19.94742
G1 X-23.792 Y43.128 E19.97703
G1 X-24.351 Y42.93 E20.00661
G1 X-24.878 Y42.659 E20.03618
G1 X-25.364 Y42.319 E20.06577
G1 X-25.8 Y41.917 E20.09536
G1 X-26.178 Y41.461 E20.12491
G1 X-26.423 Y41.08 E20.14751
G1 X-48.805 Y2.045 E22.39239
G1 X-49.065 Y1.512 E22.42198
G1 X-49.25 Y0.948 E22.45159
G1 X-49.358 Y0.365 E22.48117
G1 X-49.387 Y-.227 E22.51074
G1 X-49.336 Y-.818 E22.54034
G1 X-49.206 Y-1.396 E22.56989
G1 X-48.999 Y-1.952 E22.59949
G1 X-48.791 Y-2.357 E22.62221
G1 X-26.165 Y-41.246 E24.86687
G1 X-25.833 Y-41.737 E24.89644
G1 X-25.438 Y-42.179 E24.92602
G1 X-24.987 Y-42.564 E24.9556
G1 X-24.488 Y-42.885 E24.9852
G1 X-23.951 Y-43.136 E25.01478
G1 X-23.385 Y-43.312 E25.04435
G1 X-22.8 Y-43.411 E25.07395
G1 X-22.348 Y-43.433 E25.09652
G1 X22.631 Y-43.29 E27.34055
G1 X23.222 Y-43.248 E27.37011
G1 X23.803 Y-43.127 E27.39972
G1 X24.362 Y-42.929 E27.4293
G1 X24.889 Y-42.658 E27.45887
G1 X25.375 Y-42.318 E27.48846
G1 X25.811 Y-41.916 E27.51804
G1 X26.189 Y-41.459 E27.54763
G1 X26.434 Y-41.078 E27.57023
G1 X48.8 Y-2.056 E29.81416
G0 F3000 X48.453 Y-1.857
G1 F1500 X48.699 Y-1.348 E29.84236
G1 X48.871 Y-.809 E29.87059
G1 X48.965 Y-.252 E29.89877
G1 X48.979 Y0.313 E29.92697
G1 X48.913 Y0.875 E29.9552
G1 X48.769 Y1.422 E29.98342
G1 X48.441 Y2.142 E30.02289
G1 X25.829 Y41.041 E32.26764
G1 X25.511 Y41.509 E32.29586
G1 X25.131 Y41.927 E32.32405
G1 X24.695 Y42.287 E32.35226
G1 X24.213 Y42.582 E32.38045
G1 X23.694 Y42.806 E32.40865
G1 X23.148 Y42.955 E32.43689
G1 X22.359 Y43.031 E32.47643
G1 X-22.618 Y42.891 E34.72036
G1 X-23.182 Y42.849 E34.74857
G1 X-23.735 Y42.729 E34.7768
G1 X-24.264 Y42.531 E34.80498
G1 X-24.761 Y42.261 E34.8332
G1 X-25.214 Y41.923 E34.8614
G1 X-25.616 Y41.525 E34.88962
G1 X-26.076 Y40.881 E34.92911
G1 X-48.458 Y1.846 E37.17399
G1 X-48.704 Y1.337 E37.20219
G1 X-48.876 Y0.798 E37.23042
G1 X-48.969 Y0.24 E37.25864
G1 X-48.984 Y-.325 E37.28684
G1 X-48.919 Y-.886 E37.31502
G1 X-48.775 Y-1.433 E37.34324
G1 X-48.445 Y-2.156 E37.38289
G1 X-25.819 Y-41.045 E39.62755
G1 X-25.501 Y-41.512 E39.65574
G1 X-25.12 Y-41.93 E39.68396
G1 X-24.685 Y-42.29 E39.71213
G1 X-24.202 Y-42.585 E39.74036
G1 X-23.683 Y-42.809 E39.76857
G1 X-23.138 Y-42.957 E39.79674
G1 X-22.349 Y-43.033 E39.83629
G1 X22.63 Y-42.89 E42.08031
G1 X23.194 Y-42.848 E42.10853
G1 X23.746 Y-42.727 E42.13672
G1 X24.276 Y-42.53 E42.16493
G1 X24.772 Y-42.26 E42.1931
G1 X25.226 Y-41.922 E42.22134
G1 X25.627 Y-41.524 E42.24953
G1 X26.087 Y-40.879 E42.28905
G1 X48.453 Y-1.857 E44.53298
G0 F3000 X48.106 Y-1.658
G1 F1500 X48.338 Y-1.174 E44.55975
G1 X48.494 Y-.662 E44.58646
G1 X48.573 Y-.131 E44.61324
G1 X48.573 Y0.405 E44.63998
G1 X48.492 Y0.935 E44.66673
G1 X48.334 Y1.448 E44.69351
G1 X48.095 Y1.941 E44.72084
G1 X25.483 Y40.84 E46.96559
G1 X25.18 Y41.282 E46.99233
G1 X24.814 Y41.675 E47.01912
G1 X24.395 Y42.008 E47.04582
G1 X23.93 Y42.276 E47.0726
G1 X23.43 Y42.472 E47.09939
G1 X22.908 Y42.591 E47.1261
G1 X22.36 Y42.631 E47.15351
G1 X-22.617 Y42.491 E49.39744
G1 X-23.152 Y42.449 E49.42421
G1 X-23.674 Y42.329 E49.45093
G1 X-24.173 Y42.132 E49.4777
G1 X-24.637 Y41.863 E49.50445
G1 X-25.056 Y41.528 E49.53122
G1 X-25.421 Y41.135 E49.55798
G1 X-25.729 Y40.682 E49.58531
G1 X-48.111 Y1.647 E51.83019
G1 X-48.342 Y1.163 E51.85695
G1 X-48.499 Y0.65 E51.88371
G1 X-48.578 Y0.12 E51.91045
G1 X-48.578 Y-.417 E51.93724
G1 X-48.497 Y-.947 E51.96399
G1 X-48.339 Y-1.459 E51.99072
G1 X-48.1 Y-1.954 E52.01814
G1 X-25.474 Y-40.843 E54.26281
G1 X-25.17 Y-41.286 E54.28961
G1 X-24.804 Y-41.678 E54.31637
G1 X-24.384 Y-42.011 E54.34311
G1 X-23.92 Y-42.279 E54.36984
G1 X-23.42 Y-42.474 E54.39662
G1 X-22.897 Y-42.593 E54.42338
G1 X-22.351 Y-42.633 E54.45069
G1 X22.628 Y-42.49 E56.69471
G1 X23.163 Y-42.448 E56.72149
G1 X23.686 Y-42.328 E56.74826
G1 X24.184 Y-42.131 E56.77497
G1 X24.649 Y-41.862 E56.80178
G1 X25.067 Y-41.527 E56.8285
G1 X25.432 Y-41.134 E56.85526
G1 X25.74 Y-40.68 E56.88263
G1 X48.106 Y-1.658 E59.12656
G0 F3000 X47.759 Y-1.459
G1 F1500 X47.975 Y-1.002 E59.15177
G1 X48.117 Y-.517 E59.17699
G1 X48.18 Y-0.015 E59.20223
G1 X48.163 Y0.49 E59.22744
G1 X48.067 Y0.987 E59.25269
G1 X47.894 Y1.462 E59.27791
G1 X47.75 Y1.74 E59.29353
G1 X25.138 Y40.639 E61.53828
G1 X24.85 Y41.055 E61.56352
G1 X24.5 Y41.42 E61.58875
G1 X24.097 Y41.725 E61.61396
G1 X23.651 Y41.964 E61.63921
G1 X23.173 Y42.129 E61.66444
G1 X22.676 Y42.216 E61.68961
G1 X22.361 Y42.231 E61.70534
G1 X-22.616 Y42.091 E63.94926
G1 X-23.12 Y42.049 E63.9745
G1 X-23.611 Y41.929 E63.99971
G1 X-24.077 Y41.733 E64.02493
G1 X-24.506 Y41.466 E64.05014
G1 X-24.888 Y41.134 E64.07539
G1 X-25.213 Y40.747 E64.10061
G1 X-25.382 Y40.483 E64.11624
G1 X-47.764 Y1.448 E66.36113
G1 X-47.98 Y0.991 E66.38635
G1 X-48.121 Y0.505 E66.41159
G1 X-48.185 Y0.004 E66.43679
G1 X-48.168 Y-.502 E66.46205
G1 X-48.072 Y-.998 E66.48726
G1 X-47.899 Y-1.473 E66.51248
G1 X-47.754 Y-1.753 E66.52821
G1 X-25.128 Y-40.642 E68.77287
G1 X-24.84 Y-41.058 E68.79812
G1 X-24.49 Y-41.423 E68.82334
G1 X-24.087 Y-41.728 E68.84856
G1 X-23.641 Y-41.966 E68.87378
G1 X-23.163 Y-42.131 E68.89901
G1 X-22.665 Y-42.219 E68.92424
G1 X-22.352 Y-42.233 E68.93987
G1 X22.627 Y-42.09 E71.18389
G1 X23.131 Y-42.048 E71.20913
G1 X23.622 Y-41.928 E71.23434
G1 X24.088 Y-41.732 E71.25956
G1 X24.517 Y-41.465 E71.28477
G1 X24.899 Y-41.133 E71.31002
G1 X25.224 Y-40.746 E71.33524
G1 X25.393 Y-40.481 E71.35092
G1 X47.759 Y-1.459 E73.59484
G1 F1500 E71.59484
G0 F3000 X45.398 Y-.496
G0 X44.287 Y0.14
G0 X44.207 Y0.14
G0 X44.307 Y0.14
;TYPE:WALL-INNER
G1 F1500 E73.67799
G1 X22.031 Y38.441 E75.88852
G1 X-22.275 Y38.301 E78.09897
G1 X-44.307 Y-.14 E80.30946
G1 X-22.031 Y-38.441 E82.51999
G1 X22.275 Y-38.301 E84.73043
G1 X44.307 Y0.14 E86.94092
G0 F3000 X44.207 Y0.14
G0 X30.699 Y-0.059
G0 X30.599 Y-0.059
G1 F1500 X30.583 Y-.976 E86.98668
G1 X30.513 Y-2.284 E87.05203
G1 X30.387 Y-3.59 E87.11749
G1 X30.203 Y-4.901 E87.18353
G1 X29.963 Y-6.207 E87.24978
G1 X29.675 Y-7.459 E87.31388
G1 X29.333 Y-8.711 E87.37863
G1 X28.931 Y-9.961 E87.44414
G1 X28.472 Y-11.205 E87.51029
G1 X27.956 Y-12.441 E87.57711
G1 X27.38 Y-13.661 E87.64442
G1 X26.746 Y-14.863 E87.71222
G1 X26.055 Y-16.044 E87.78048
G1 X25.308 Y-17.197 E87.84902
G1 X24.506 Y-18.322 E87.91795
G1 X23.652 Y-19.413 E87.98707
G1 X22.747 Y-20.466 E88.05635
G1 X21.793 Y-21.477 E88.1257
G1 X20.796 Y-22.445 E88.19502
G1 X19.755 Y-23.366 E88.26437
G1 X18.677 Y-24.236 E88.33348
G1 X17.564 Y-25.056 E88.40245
G1 X16.419 Y-25.821 E88.47115
G1 X15.246 Y-26.529 E88.53951
G1 X14.049 Y-27.183 E88.60756
G1 X12.803 Y-27.79 E88.6767
G1 X11.539 Y-28.34 E88.74548
G1 X10.261 Y-28.826 E88.81369
G1 X8.977 Y-29.252 E88.88118
G1 X7.689 Y-29.617 E88.94797
G1 X6.401 Y-29.922 E89.01401
G1 X5.118 Y-30.167 E89.07917
G1 X3.842 Y-30.356 E89.14353
G1 X2.548 Y-30.492 E89.20844
G1 X1.233 Y-30.574 E89.27417
G1 X-0.059 Y-30.599 E89.33865
G1 X-.976 Y-30.583 E89.3844
G1 X-2.284 Y-30.513 E89.44975
G1 X-3.59 Y-30.387 E89.51521
G1 X-4.901 Y-30.203 E89.58126
G1 X-6.207 Y-29.963 E89.6475
G1 X-7.459 Y-29.675 E89.7116
G1 X-8.711 Y-29.333 E89.77635
G1 X-9.961 Y-28.931 E89.84186
G1 X-11.205 Y-28.472 E89.90801
G1 X-12.441 Y-27.956 E89.97483
G1 X-13.661 Y-27.38 E90.04214
G1 X-14.863 Y-26.746 E90.10994
G1 X-16.044 Y-26.055 E90.17821
G1 X-17.197 Y-25.308 E90.24675
G1 X-18.322 Y-24.506 E90.31568
G1 X-19.413 Y-23.652 E90.3848
G1 X-20.466 Y-22.747 E90.45407
G1 X-21.477 Y-21.793 E90.52342
G1 X-22.445 Y-20.796 E90.59275
G1 X-23.366 Y-19.755 E90.66209
G1 X-24.236 Y-18.677 E90.7312
G1 X-25.056 Y-17.564 E90.80017
G1 X-25.821 Y-16.419 E90.86887
G1 X-26.529 Y-15.246 E90.93723
G1 X-27.183 Y-14.049 E91.00528
G1 X-27.79 Y-12.803 E91.07443
G1 X-28.34 Y-11.539 E91.1432
G1 X-28.826 Y-10.261 E91.21141
G1 X-29.252 Y-8.977 E91.27891
G1 X-29.617 Y-7.689 E91.3457
G1 X-29.922 Y-6.401 E91.41173
G1 X-30.167 Y-5.118 E91.4769
G1 X-30.356 Y-3.842 E91.54125
G1 X-30.492 Y-2.548 E91.60616
G1 X-30.574 Y-1.233 E91.6719
G1 X-30.599 Y0.059 E91.73637
G1 X-30.583 Y0.976 E91.78212
G1 X-30.513 Y2.284 E91.84747
G1 X-30.387 Y3.59 E91.91293
G1 X-30.203 Y4.901 E91.97898
G1 X-29.963 Y6.207 E92.04523
G1 X-29.675 Y7.459 E92.10932
G1 X-29.333 Y8.711 E92.17407
G1 X-28.931 Y9.961 E92.23958
G1 X-28.472 Y11.205 E92.30573
G1 X-27.956 Y12.441 E92.37256
G1 X-27.38 Y13.661 E92.43987
G1 X-26.746 Y14.863 E92.50766
G1 X-26.055 Y16.044 E92.57593
G1 X-25.308 Y17.197 E92.64447
G1 X-24.506 Y18.322 E92.7134
G1 X-23.652 Y19.413 E92.78252
G1 X-22.747 Y20.466 E92.85179
G1 X-21.793 Y21.477 E92.92114
G1 X-20.796 Y22.445 E92.99047
G1 X-19.755 Y23.366 E93.05981
G1 X-18.677 Y24.236 E93.12893
G1 X-17.564 Y25.056 E93.1979
G1 X-16.419 Y25.821 E93.2666
G1 X-15.246 Y26.529 E93.33495
G1 X-14.049 Y27.183 E93.403
G1 X-12.803 Y27.79 E93.47215
G1 X-11.539 Y28.34 E93.54092
G1 X-10.261 Y28.826 E93.60914
G1 X-8.977 Y29.252 E93.67663
G1 X-7.689 Y29.617 E93.74342
G1 X-6.401 Y29.922 E93.80945
G1 X-5.118 Y30.167 E93.87462
G1 X-3.842 Y30.356 E93.93897
G1 X-2.548 Y30.492 E94.00389
G1 X-1.233 Y30.574 E94.06962
G1 X0.059 Y30.599 E94.13409
G1 X0.976 Y30.583 E94.17985
G1 X2.284 Y30.513 E94.2452
G1 X3.59 Y30.387 E94.31066
G1 X4.901 Y30.203 E94.3767
G1 X6.207 Y29.963 E94.44295
G1 X7.459 Y29.675 E94.50704
G1 X8.711 Y29.333 E94.5718
G1 X9.961 Y28.931 E94.6373
G1 X11.205 Y28.472 E94.70346
G1 X12.441 Y27.956 E94.77028
G1 X13.661 Y27.38 E94.83759
G1 X14.863 Y26.746 E94.90539
G1 X16.044 Y26.055 E94.97365
G1 X17.197 Y25.308 E95.04219
G1 X18.322 Y24.506 E95.11112
G1 X19.413 Y23.652 E95.18024
G1 X20.466 Y22.747 E95.24951
G1 X21.477 Y21.793 E95.31886
G1 X22.445 Y20.796 E95.38819
G1 X23.366 Y19.755 E95.45754
G1 X24.236 Y18.677 E95.52665
G1 X25.056 Y17.564 E95.59562
G1 X25.821 Y16.419 E95.66432
G1 X26.529 Y15.246 E95.73268
G1 X27.183 Y14.049 E95.80073
G1 X27.79 Y12.803 E95.86987
G1 X28.34 Y11.539 E95.93865
G1 X28.826 Y10.261 E96.00686
G1 X29.252 Y8.977 E96.07435
G1 X29.617 Y7.689 E96.14114
G1 X29.922 Y6.401 E96.20718
G1 X30.167 Y5.118 E96.27234
G1 X30.356 Y3.842 E96.3367
G1 X30.492 Y2.548 E96.40161
G1 X30.574 Y1.233 E96.46734
G1 X30.599 Y-0.059 E96.53181
G0 F3000 X30.199 Y-0.059
;TYPE:WALL-OUTER
G1 F1500 X30.183 Y-.962 E96.57687
G1 X30.114 Y-2.254 E96.64142
G1 X29.99 Y-3.543 E96.70603
G1 X29.808 Y-4.837 E96.77122
G1 X29.571 Y-6.126 E96.83661
G1 X29.287 Y-7.361 E96.89983
G1 X28.949 Y-8.597 E96.96376
G1 X28.553 Y-9.831 E97.02841
G1 X28.1 Y-11.059 E97.09372
G1 X27.59 Y-12.278 E97.15964
G1 X27.022 Y-13.482 E97.22606
G1 X26.396 Y-14.669 E97.29301
G1 X25.714 Y-15.834 E97.36036
G1 X24.977 Y-16.972 E97.428
G1 X24.185 Y-18.083 E97.49607
G1 X23.343 Y-19.159 E97.56423
G1 X22.45 Y-20.198 E97.63258
G1 X21.508 Y-21.196 E97.70105
G1 X20.524 Y-22.152 E97.7695
G1 X19.497 Y-23.06 E97.83789
G1 X18.433 Y-23.919 E97.90611
G1 X17.334 Y-24.728 E97.97419
G1 X16.204 Y-25.483 E98.042
G1 X15.047 Y-26.182 E98.10943
G1 X13.865 Y-26.828 E98.17664
G1 X12.636 Y-27.427 E98.24485
G1 X11.388 Y-27.969 E98.31273
G1 X10.127 Y-28.449 E98.38004
G1 X8.859 Y-28.87 E98.4467
G1 X7.588 Y-29.23 E98.51261
G1 X6.317 Y-29.531 E98.57777
G1 X5.051 Y-29.773 E98.64207
G1 X3.792 Y-29.959 E98.70557
G1 X2.515 Y-30.093 E98.76963
G1 X1.217 Y-30.174 E98.83451
G1 X-0.059 Y-30.199 E98.89818
G1 X-.962 Y-30.183 E98.94324
G1 X-2.254 Y-30.114 E99.00779
G1 X-3.543 Y-29.99 E99.0724
G1 X-4.837 Y-29.808 E99.13759
G1 X-6.126 Y-29.571 E99.20298
G1 X-7.361 Y-29.287 E99.2662
G1 X-8.597 Y-28.949 E99.33013
G1 X-9.831 Y-28.553 E99.39478
G1 X-11.059 Y-28.1 E99.46008
G1 X-12.278 Y-27.59 E99.52601
G1 X-13.482 Y-27.022 E99.59243
G1 X-14.669 Y-26.396 E99.65938
G1 X-15.834 Y-25.714 E99.72672
G1 X-16.972 Y-24.977 E99.79437
G1 X-18.083 Y-24.185 E99.86244
G1 X-19.159 Y-23.343 E99.9306
G1 X-20.198 Y-22.45 E99.99895
G1 X-21.196 Y-21.508 E100.06742
G1 X-22.152 Y-20.524 E100.13586
G1 X-23.06 Y-19.497 E100.20426
G1 X-23.919 Y-18.433 E100.27248
G1 X-24.728 Y-17.334 E100.34056
G1 X-25.483 Y-16.204 E100.40836
G1 X-26.182 Y-15.047 E100.4758
G1 X-26.828 Y-13.865 E100.54301
G1 X-27.427 Y-12.636 E100.61122
G1 X-27.969 Y-11.388 E100.6791
G1 X-28.449 Y-10.127 E100.74641
G1 X-28.87 Y-8.859 E100.81307
G1 X-29.23 Y-7.588 E100.87897
G1 X-29.531 Y-6.317 E100.94414
G1 X-29.773 Y-5.051 E101.00844
G1 X-29.959 Y-3.792 E101.07194
G1 X-30.093 Y-2.515 E101.136
G1 X-30.174 Y-1.217 E101.20088
G1 X-30.199 Y0.059 E101.26455
G1 X-30.183 Y0.962 E101.30961
G1 X-30.114 Y2.254 E101.37416
G1 X-29.99 Y3.543 E101.43876
G1 X-29.808 Y4.837 E101.50396
G1 X-29.571 Y6.126 E101.56934
G1 X-29.287 Y7.361 E101.63257
G1 X-28.949 Y8.597 E101.6965
G1 X-28.553 Y9.831 E101.76115
G1 X-28.1 Y11.059 E101.82645
G1 X-27.59 Y12.278 E101.89238
G1 X-27.022 Y13.482 E101.95879
G1 X-26.396 Y14.669 E102.02574
G1 X-25.714 Y15.834 E102.09309
G1 X-24.977 Y16.972 E102.16073
G1 X-24.185 Y18.083 E102.2288
G1 X-23.343 Y19.159 E102.29697
G1 X-22.45 Y20.198 E102.36532
G1 X-21.508 Y21.196 E102.43379
G1 X-20.524 Y22.152 E102.50223
G1 X-19.497 Y23.06 E102.57062
G1 X-18.433 Y23.919 E102.63885
G1 X-17.334 Y24.728 E102.70693
G1 X-16.204 Y25.483 E102.77473
G1 X-15.047 Y26.182 E102.84217
G1 X-13.865 Y26.828 E102.90937
G1 X-12.636 Y27.427 E102.97758
G1 X-11.388 Y27.969 E103.04547
G1 X-10.127 Y28.449 E103.11278
G1 X-8.859 Y28.87 E103.17944
G1 X-7.588 Y29.23 E103.24534
G1 X-6.317 Y29.531 E103.31051
G1 X-5.051 Y29.773 E103.37481
G1 X-3.792 Y29.959 E103.4383
G1 X-2.515 Y30.093 E103.50236
G1 X-1.217 Y30.174 E103.56725
G1 X0.059 Y30.199 E103.63092
G1 X0.962 Y30.183 E103.67598
G1 X2.254 Y30.114 E103.74053
G1 X3.543 Y29.99 E103.80513
G1 X4.837 Y29.808 E103.87033
G1 X6.126 Y29.571 E103.93571
G1 X7.361 Y29.287 E103.99894
G1 X8.597 Y28.949 E104.06286
G1 X9.831 Y28.553 E104.12752
G1 X11.059 Y28.1 E104.19282
G1 X12.278 Y27.59 E104.25875
G1 X13.482 Y27.022 E104.32516
G1 X14.669 Y26.396 E104.39211
